; generated by Slic3r 1.1.7 on 2014-11-13 at 09:00:40

; perimeters extrusion width = 0.42mm
; infill extrusion width = 0.74mm
; solid infill extrusion width = 0.71mm
; top infill extrusion width = 0.71mm
; support material extrusion width = 0.42mm

G21 ; set units to millimeters
M190 S70 ; wait for bed temperature to be reached
M104 S190 ; set temperature
G28 ; home all axes
G1 Z5 F5000 ; lift nozzle
M109 S190 ; wait for temperature to be reached
G90 ; use absolute coordinates
G92 E0
M82 ; use absolute distances for extrusion
M106 S255
G1 F1800.000 E-1.00000
G92 E0
G1 Z0.300 F1800.000
G1 X68.570 Y83.107 F1800.000
G1 E1.00000 F1800.000
G1 X70.963 Y81.402 E1.09974 F720.000
G1 X73.725 Y80.401 E1.19948
G1 X76.000 Y80.160 E1.27715
G1 X124.000 Y80.160 E2.90668
G1 X126.911 Y80.558 E3.00642
G1 X129.608 Y81.723 E3.10616 F720.000
G1 X131.893 Y83.570 E3.20590
G1 X133.598 Y85.963 E3.30564
G1 X134.599 Y88.725 E3.40538
G1 X134.840 Y91.000 E3.48305
G1 X134.840 Y109.000 E4.09412
G1 X134.442 Y111.911 E4.19386
G1 X133.277 Y114.608 E4.29360
G1 X131.430 Y116.893 E4.39335
G1 X129.037 Y118.598 E4.49309
G1 X126.275 Y119.599 E4.59283
G1 X124.000 Y119.840 E4.67049
G1 X103.000 Y119.840 E5.38341
G1 X100.280 Y119.493 E5.47651
G1 X73.280 Y112.493 E6.42343
G1 X70.562 Y111.377 E6.52317
G1 X68.243 Y109.572 E6.62291
G1 X66.495 Y107.211 E6.72265
G1 X65.445 Y104.467 E6.82240
G1 X65.160 Y102.000 E6.90672
G1 X65.160 Y91.000 E7.28015
G1 X65.558 Y88.089 E7.37989
G1 X66.723 Y85.392 E7.47963
G1 X68.530 Y83.156 E7.57723
G1 X68.908 Y83.387 F1800.000
G1 X68.983 Y83.297 E7.58121 F720.000
G1 X71.359 Y81.670 E7.67899
G1 X74.091 Y80.756 E7.77677
G1 X76.000 Y80.580 E7.84187
G1 X124.000 Y80.580 E9.47139
G1 X126.853 Y80.978 E9.56918
G1 X129.487 Y82.142 E9.66696 F720.000
G1 X131.703 Y83.983 E9.76474
G1 X133.330 Y86.359 E9.86252
G1 X134.244 Y89.091 E9.96030
G1 X134.420 Y91.000 E10.02539
G1 X134.420 Y109.000 E10.63646
G1 X134.022 Y111.853 E10.73425
G1 X132.858 Y114.487 E10.83203
G1 X131.017 Y116.703 E10.92981
G1 X128.641 Y118.330 E11.02759
G1 X125.909 Y119.244 E11.12537
G1 X124.000 Y119.420 E11.19046
G1 X103.000 Y119.420 E11.90338
G1 X100.385 Y119.087 E11.99288
G1 X73.385 Y112.087 E12.93979
G1 X70.724 Y110.985 E13.03757
G1 X68.465 Y109.197 E13.13535
G1 X66.783 Y106.860 E13.23313
G1 X65.804 Y104.151 E13.33091
G1 X65.580 Y102.000 E13.40432
G1 X65.580 Y91.000 E13.77776
G1 X65.978 Y88.147 E13.87554
G1 X67.142 Y85.513 E13.97332
G1 X68.867 Y83.436 E14.06499
G1 F1800.000 E13.06499
G92 E0
G1 X83.837 Y98.594 F1800.000
G1 E1.00000 F1800.000
G1 X83.693 Y98.704 E1.00617 F540.000
G1 X83.380 Y98.886 E1.01847
G1 X83.212 Y98.955 E1.02464
G1 X82.861 Y99.049 E1.03695
G1 X82.681 Y99.073 E1.04312
G1 X82.319 Y99.073 E1.05542
G1 X82.139 Y99.049 E1.06159
G1 X81.788 Y98.955 E1.07391
G1 X81.460 Y98.802 E1.08621
G1 X81.307 Y98.704 E1.09237
G1 X81.029 Y98.471 E1.10469
G1 X80.796 Y98.193 E1.11700
G1 X80.698 Y98.040 E1.12316
G1 X80.614 Y97.879 E1.12932
G1 X80.490 Y97.539 E1.14164
G1 X80.427 Y97.181 E1.15395
G1 X80.419 Y97.000 E1.16011
G1 X80.427 Y96.819 E1.16627
G1 X80.490 Y96.461 E1.17859
G1 X80.614 Y96.121 E1.19090
G1 X80.698 Y95.960 E1.19706
G1 X80.906 Y95.663 E1.20937
G1 X81.163 Y95.406 E1.22168
G1 X81.307 Y95.296 E1.22785
G1 X81.460 Y95.198 E1.23401
G1 X81.788 Y95.045 E1.24631
G1 X82.139 Y94.951 E1.25863
G1 X82.319 Y94.927 E1.26480
G1 X82.681 Y94.927 E1.27710
G1 X82.861 Y94.951 E1.28327 F540.000
G1 X83.212 Y95.045 E1.29558
G1 X83.540 Y95.198 E1.30789
G1 X83.693 Y95.296 E1.31405
G1 X83.971 Y95.529 E1.32637
G1 X84.204 Y95.806 E1.33867
G1 X84.386 Y96.121 E1.35099
G1 X84.455 Y96.288 E1.35715
G1 X84.549 Y96.639 E1.36946
G1 X84.581 Y97.000 E1.38178
G1 X84.573 Y97.181 E1.38794
G1 X84.510 Y97.538 E1.40025
G1 X84.386 Y97.879 E1.41256
G1 X84.302 Y98.040 E1.41872
G1 X84.094 Y98.337 E1.43104
G1 X83.884 Y98.551 E1.44121
G1 X83.567 Y98.272 F1800.000
G1 X83.452 Y98.360 E1.44613 F378.000
G1 X83.202 Y98.505 E1.45595
G1 X82.930 Y98.604 E1.46578
G1 X82.645 Y98.654 E1.47560
G1 X82.355 Y98.654 E1.48543
G1 X82.212 Y98.635 E1.49034
G1 X81.932 Y98.560 E1.50017
G1 X81.670 Y98.438 E1.50999
G1 X81.548 Y98.360 E1.51491
G1 X81.433 Y98.272 E1.51983
G1 X81.228 Y98.067 E1.52965
G1 X81.140 Y97.952 E1.53457
G1 X80.995 Y97.702 E1.54439
G1 X80.896 Y97.430 E1.55422
G1 X80.846 Y97.145 E1.56404
G1 X80.840 Y97.000 E1.56896
G1 X80.846 Y96.855 E1.57388
G1 X80.896 Y96.570 E1.58370
G1 X80.995 Y96.298 E1.59352
G1 X81.062 Y96.170 E1.59844
G1 X81.140 Y96.048 E1.60336
G1 X81.326 Y95.826 E1.61318
G1 X81.548 Y95.640 E1.62301
G1 X81.670 Y95.562 E1.62792
G1 X81.932 Y95.440 E1.63775
G1 X82.212 Y95.365 E1.64757
G1 X82.355 Y95.346 E1.65249
G1 X82.645 Y95.346 E1.66231 F378.000
G1 X82.788 Y95.365 E1.66723
G1 X83.068 Y95.440 E1.67706
G1 X83.330 Y95.562 E1.68688
G1 X83.452 Y95.640 E1.69179
G1 X83.674 Y95.826 E1.70162
G1 X83.860 Y96.048 E1.71144
G1 X84.005 Y96.298 E1.72127
G1 X84.104 Y96.570 E1.73110
G1 X84.154 Y96.855 E1.74092
G1 X84.160 Y97.000 E1.74584
G1 X84.135 Y97.288 E1.75566
G1 X84.060 Y97.568 E1.76548
G1 X83.938 Y97.830 E1.77531
G1 X83.772 Y98.067 E1.78513
G1 X83.614 Y98.229 E1.79282
G1 F1800.000 E0.79282
G92 E0
G1 X90.451 Y97.361 F1800.000
G1 E1.00000 F1800.000
G1 X90.427 Y97.181 E1.00616 F540.000
G1 X90.427 Y96.819 E1.01847
G1 X90.490 Y96.462 E1.03079
G1 X90.545 Y96.288 E1.03695
G1 X90.698 Y95.960 E1.04926
G1 X90.906 Y95.663 E1.06158
G1 X91.163 Y95.406 E1.07388
G1 X91.307 Y95.296 E1.08005
G1 X91.460 Y95.198 E1.08622
G1 X91.788 Y95.045 E1.09852
G1 X92.139 Y94.951 E1.11083
G1 X92.319 Y94.927 E1.11700
G1 X92.681 Y94.927 E1.12931
G1 X92.861 Y94.951 E1.13547 F540.000
G1 X93.212 Y95.045 E1.14779
G1 X93.379 Y95.114 E1.15395
G1 X93.693 Y95.296 E1.16625
G1 X93.971 Y95.529 E1.17857
G1 X94.204 Y95.807 E1.19088
G1 X94.302 Y95.960 E1.19705
G1 X94.455 Y96.288 E1.20935
G1 X94.549 Y96.639 E1.22167
G1 X94.573 Y96.819 E1.22783
G1 X94.573 Y97.181 E1.24014
G1 X94.549 Y97.361 E1.24631
G1 X94.455 Y97.712 E1.25862
G1 X94.386 Y97.879 E1.26479
G1 X94.204 Y98.193 E1.27709
G1 X94.094 Y98.337 E1.28326
G1 X93.837 Y98.594 E1.29556
G1 X93.693 Y98.704 E1.30173
G1 X93.379 Y98.886 E1.31403
G1 X93.212 Y98.955 E1.32020
G1 X92.861 Y99.049 E1.33251
G1 X92.681 Y99.073 E1.33868
G1 X92.319 Y99.073 E1.35099
G1 X91.962 Y99.010 E1.36330
G1 X91.788 Y98.955 E1.36947
G1 X91.460 Y98.802 E1.38177
G1 X91.307 Y98.704 E1.38794
G1 X91.029 Y98.471 E1.40025
G1 X90.796 Y98.193 E1.41257
G1 X90.698 Y98.040 E1.41873
G1 X90.545 Y97.712 E1.43103
G1 X90.465 Y97.423 E1.44121
G1 X90.865 Y97.288 F1800.000
G1 X90.840 Y97.000 E1.45104 F378.000
G1 X90.865 Y96.712 E1.46086
G1 X90.940 Y96.432 E1.47068
G1 X90.995 Y96.298 E1.47561
G1 X91.140 Y96.048 E1.48542
G1 X91.326 Y95.826 E1.49525
G1 X91.433 Y95.728 E1.50017
G1 X91.670 Y95.562 E1.50999
G1 X91.932 Y95.440 E1.51982
G1 X92.212 Y95.365 E1.52964
G1 X92.355 Y95.346 E1.53456
G1 X92.645 Y95.346 E1.54438 F378.000
G1 X92.788 Y95.365 E1.54930
G1 X93.068 Y95.440 E1.55912
G1 X93.330 Y95.562 E1.56895
G1 X93.452 Y95.640 E1.57386
G1 X93.674 Y95.826 E1.58369
G1 X93.860 Y96.048 E1.59351
G1 X93.938 Y96.170 E1.59843
G1 X94.060 Y96.432 E1.60825
G1 X94.135 Y96.712 E1.61808
G1 X94.154 Y96.855 E1.62300
G1 X94.154 Y97.145 E1.63282
G1 X94.135 Y97.288 E1.63774
G1 X94.060 Y97.568 E1.64757
G1 X93.938 Y97.830 E1.65739
G1 X93.860 Y97.952 E1.66231
G1 X93.674 Y98.174 E1.67213
G1 X93.452 Y98.360 E1.68196
G1 X93.202 Y98.505 E1.69177
G1 X93.068 Y98.560 E1.69670
G1 X92.788 Y98.635 E1.70652
G1 X92.645 Y98.654 E1.71144
G1 X92.355 Y98.654 E1.72126
G1 X92.212 Y98.635 E1.72618
G1 X91.932 Y98.560 E1.73600
G1 X91.670 Y98.438 E1.74583
G1 X91.548 Y98.360 E1.75075
G1 X91.326 Y98.174 E1.76057
G1 X91.140 Y97.952 E1.77040
G1 X91.062 Y97.830 E1.77531
G1 X90.940 Y97.568 E1.78514
G1 X90.879 Y97.350 E1.79282
G1 F1800.000 E0.79282
G92 E0
G1 X106.897 Y99.401 F1800.000
G1 E1.00000 F1800.000
G1 X106.970 Y98.849 E1.01893 F540.000
G1 X107.095 Y98.284 E1.03857
G1 X107.269 Y97.732 E1.05820
G1 X107.491 Y97.198 E1.07783
G1 X107.758 Y96.685 E1.09747
G1 X108.069 Y96.197 E1.11712
G1 X108.421 Y95.738 E1.13675
G1 X108.812 Y95.311 E1.15639
G1 X109.238 Y94.921 E1.17603
G1 X109.697 Y94.569 E1.19566
G1 X110.185 Y94.258 E1.21530
G1 X110.698 Y93.991 E1.23494
G1 X111.232 Y93.769 E1.25458
G1 X111.784 Y93.595 E1.27422
G1 X112.348 Y93.470 E1.29385
G1 X112.922 Y93.395 E1.31349
G1 X113.500 Y93.369 E1.33312
G1 X114.044 Y93.393 E1.35161
G1 X114.651 Y93.470 E1.37239 F540.000
G1 X115.216 Y93.595 E1.39204
G1 X115.768 Y93.769 E1.41167
G1 X116.302 Y93.991 E1.43130
G1 X116.815 Y94.258 E1.45094
G1 X117.303 Y94.569 E1.47059
G1 X117.762 Y94.921 E1.49022
G1 X118.189 Y95.312 E1.50986
G1 X118.579 Y95.738 E1.52950
G1 X118.911 Y96.170 E1.54798
G1 X119.242 Y96.685 E1.56877
G1 X119.509 Y97.198 E1.58841
G1 X119.731 Y97.732 E1.60804
G1 X119.905 Y98.284 E1.62768
G1 X120.030 Y98.849 E1.64732
G1 X120.105 Y99.422 E1.66695
G1 X120.131 Y100.000 E1.68659
G1 X120.105 Y100.578 E1.70623
G1 X120.030 Y101.151 E1.72586
G1 X119.905 Y101.716 E1.74550
G1 X119.731 Y102.268 E1.76514
G1 X119.509 Y102.802 E1.78477
G1 X119.242 Y103.315 E1.80442
G1 X118.931 Y103.803 E1.82405
G1 X118.579 Y104.262 E1.84369
G1 X118.189 Y104.689 E1.86333
G1 X117.762 Y105.079 E1.88296
G1 X117.275 Y105.450 E1.90374
G1 X116.815 Y105.742 E1.92224
G1 X116.302 Y106.009 E1.94188
G1 X115.735 Y106.241 E1.96266
G1 X115.216 Y106.405 E1.98114
G1 X114.651 Y106.530 E2.00078
G1 X114.078 Y106.605 E2.02042
G1 X113.500 Y106.631 E2.04006
G1 X112.889 Y106.601 E2.06083
G1 X112.348 Y106.530 E2.07933
G1 X111.784 Y106.405 E2.09897
G1 X111.232 Y106.231 E2.11860
G1 X110.698 Y106.009 E2.13824
G1 X110.185 Y105.742 E2.15788
G1 X109.697 Y105.431 E2.17752
G1 X109.238 Y105.079 E2.19715
G1 X108.812 Y104.689 E2.21678
G1 X108.421 Y104.262 E2.23643
G1 X108.069 Y103.803 E2.25606
G1 X107.758 Y103.315 E2.27571
G1 X107.491 Y102.802 E2.29534
G1 X107.269 Y102.268 E2.31497
G1 X107.095 Y101.716 E2.33461
G1 X106.970 Y101.151 E2.35425
G1 X106.895 Y100.578 E2.37388
G1 X106.869 Y100.000 E2.39352
G1 X106.893 Y99.464 E2.41173
G1 X107.314 Y99.456 F1800.000
G1 X107.384 Y98.922 E2.43004 F378.000
G1 X107.501 Y98.393 E2.44843
G1 X107.664 Y97.876 E2.46682
G1 X107.872 Y97.376 E2.48521
G1 X108.122 Y96.895 E2.50361
G1 X108.413 Y96.438 E2.52200
G1 X108.743 Y96.008 E2.54039
G1 X109.109 Y95.609 E2.55879
G1 X109.508 Y95.243 E2.57718
G1 X109.938 Y94.913 E2.59557
G1 X110.395 Y94.622 E2.61396
G1 X110.875 Y94.372 E2.63235
G1 X111.376 Y94.164 E2.65075
G1 X111.893 Y94.001 E2.66914
G1 X112.422 Y93.884 E2.68753
G1 X112.959 Y93.813 E2.70593
G1 X113.484 Y93.790 E2.72379
G1 X114.041 Y93.813 E2.74271 F378.000
G1 X114.578 Y93.884 E2.76110
G1 X115.107 Y94.001 E2.77949
G1 X115.624 Y94.164 E2.79788
G1 X116.124 Y94.372 E2.81627
G1 X116.605 Y94.622 E2.83467
G1 X117.062 Y94.913 E2.85306
G1 X117.492 Y95.243 E2.87145
G1 X117.891 Y95.609 E2.88985
G1 X118.257 Y96.008 E2.90824
G1 X118.587 Y96.438 E2.92663
G1 X118.878 Y96.895 E2.94502
G1 X119.128 Y97.376 E2.96342
G1 X119.336 Y97.876 E2.98181
G1 X119.499 Y98.393 E3.00020
G1 X119.616 Y98.922 E3.01859
G1 X119.687 Y99.459 E3.03698
G1 X119.710 Y100.000 E3.05538
G1 X119.687 Y100.541 E3.07377
G1 X119.616 Y101.078 E3.09216
G1 X119.499 Y101.607 E3.11055
G1 X119.336 Y102.124 E3.12895
G1 X119.128 Y102.624 E3.14734
G1 X118.878 Y103.105 E3.16573
G1 X118.587 Y103.562 E3.18412
G1 X118.257 Y103.992 E3.20251
G1 X117.891 Y104.391 E3.22091
G1 X117.492 Y104.757 E3.23930
G1 X117.062 Y105.087 E3.25769
G1 X116.605 Y105.378 E3.27609
G1 X116.125 Y105.628 E3.29448
G1 X115.624 Y105.836 E3.31287
G1 X115.107 Y105.999 E3.33126
G1 X114.578 Y106.116 E3.34965
G1 X114.041 Y106.187 E3.36804
G1 X113.500 Y106.210 E3.38644
G1 X112.943 Y106.185 E3.40535
G1 X112.422 Y106.116 E3.42322
G1 X111.893 Y105.999 E3.44161
G1 X111.376 Y105.836 E3.46000
G1 X110.875 Y105.628 E3.47840
G1 X110.395 Y105.378 E3.49679
G1 X109.938 Y105.087 E3.51518
G1 X109.508 Y104.757 E3.53357
G1 X109.109 Y104.391 E3.55196
G1 X108.743 Y103.992 E3.57036
G1 X108.413 Y103.562 E3.58875
G1 X108.122 Y103.105 E3.60715
G1 X107.872 Y102.624 E3.62554
G1 X107.664 Y102.124 E3.64393
G1 X107.501 Y101.607 E3.66232
G1 X107.384 Y101.078 E3.68071
G1 X107.313 Y100.541 E3.69910
G1 X107.290 Y100.000 E3.71750
G1 X107.311 Y99.519 E3.73384
G1 F1800.000 E2.73384
G92 E0
G1 X103.630 Y101.370 F1800.000
G1 E1.00000 F1800.000
G1 X76.630 Y101.370 E1.91661 F540.000
G1 X76.630 Y91.630 E2.24727
G1 X123.370 Y91.630 E3.83402
G1 X123.370 Y108.370 E4.40232
G1 X103.630 Y108.370 E5.07246
G1 X103.630 Y101.433 E5.30797
G1 X103.210 Y101.790 F1800.000
G1 X76.210 Y101.790 E6.22458 F378.000
G1 X76.210 Y91.210 E6.58375
G1 X123.790 Y91.210 E8.19902
G1 X123.790 Y108.790 E8.79584
G1 X103.210 Y108.790 E9.49450
G1 X103.210 Y101.853 E9.73000
G1 F1800.000 E8.73000
G92 E0
G1 X103.976 Y108.004 F1800.000
G1 E1.00000 F1800.000
G1 X123.004 Y108.004 E2.03216 F540.000
G1 F1800.000 E1.03216
G92 E0
G1 X117.186 Y105.916 F1800.000
G1 E1.00000 F1800.000
G1 X123.004 Y105.916 E1.31559 F540.000
G1 X123.004 Y105.220 E1.35335
G1 X118.120 Y105.220 E1.61826
G1 X118.808 Y104.524 E1.67135
G1 X123.004 Y104.524 E1.89894
G1 X123.004 Y103.828 E1.93670
G1 X119.326 Y103.828 E2.13623
G1 X119.728 Y103.132 E2.17982
G1 X123.004 Y103.132 E2.35756
G1 X123.004 Y102.436 E2.39531
G1 X120.035 Y102.436 E2.55635
G1 X120.254 Y101.740 E2.59591
G1 X123.004 Y101.740 E2.74511
G1 X123.004 Y101.044 E2.78286
G1 X120.393 Y101.044 E2.92451
G1 X120.462 Y100.348 E2.96245
G1 X123.004 Y100.348 E3.10037
G1 X123.004 Y99.652 E3.13812
G1 X120.462 Y99.652 E3.27604
G1 X120.393 Y98.956 E3.31398
G1 X123.004 Y98.956 E3.45562
G1 X123.004 Y98.260 E3.49338
G1 X120.254 Y98.260 E3.64258
G1 X120.035 Y97.564 E3.68214
G1 X123.004 Y97.564 E3.84318
G1 X123.004 Y96.868 E3.88093
G1 X119.728 Y96.868 E4.05867
G1 X119.326 Y96.172 E4.10226
G1 X123.004 Y96.172 E4.30179
G1 X123.004 Y95.476 E4.33955
G1 X118.808 Y95.476 E4.56714
G1 X118.117 Y94.780 E4.62034
G1 X123.004 Y94.780 E4.88541
G1 X123.004 Y94.084 E4.92317
G1 X117.186 Y94.084 E5.23876
G1 X115.708 Y93.388 F1800.000
G1 X123.004 Y93.388 E5.63450 F540.000
G1 F1800.000 E4.63450
G92 E0
G1 X111.292 Y93.388 F1800.000
G1 E1.00000 F1800.000
G1 X76.996 Y93.388 E2.86032 F540.000
G1 X76.996 Y92.692 E2.89807
G1 X123.004 Y92.692 E5.39371
G1 X123.004 Y91.996 E5.43146
G1 X76.996 Y91.996 E7.92710
G1 F1800.000 E6.92710
G92 E0
G1 X81.077 Y98.956 F1800.000
G1 E1.00000 F1800.000
G1 X76.996 Y98.956 E1.22137 F540.000
G1 X76.996 Y98.260 E1.25912
G1 X80.435 Y98.260 E1.44566
G1 X80.144 Y97.564 E1.48658
G1 X76.996 Y97.564 E1.65733
G1 X76.996 Y96.868 E1.69508
G1 X80.081 Y96.868 E1.86246
G1 X80.228 Y96.172 E1.90104
G1 X76.996 Y96.172 E2.07634
G1 X76.996 Y95.476 E2.11409
G1 X80.615 Y95.476 E2.31040
G1 X81.538 Y94.780 E2.37312
G1 X76.996 Y94.780 E2.61952
G1 X76.996 Y94.084 E2.65727
G1 X109.814 Y94.084 E4.43743
G1 F1800.000 E3.43743
G92 E0
G1 X109.814 Y105.916 F1800.000
G1 E1.00000 F1800.000
G1 X103.976 Y105.916 E1.31668 F540.000
G1 X103.976 Y105.220 E1.35443
G1 X108.880 Y105.220 E1.62043
G1 X108.192 Y104.524 E1.67352
G1 X103.976 Y104.524 E1.90219
G1 X103.976 Y103.828 E1.93995
G1 X107.674 Y103.828 E2.14057
G1 X107.272 Y103.132 E2.18416
G1 X103.976 Y103.132 E2.36298
G1 X103.976 Y102.436 E2.40074
G1 X106.965 Y102.436 E2.56286
G1 X106.746 Y101.740 E2.60242
G1 X103.976 Y101.740 E2.75270
G1 X103.976 Y101.044 E2.79046
G1 X106.608 Y101.044 E2.93323
G1 X106.538 Y100.348 E2.97117
G1 X76.996 Y100.348 E4.57366
G1 X76.996 Y99.652 E4.61141
G1 X106.538 Y99.652 E6.21390
G1 X106.607 Y98.956 E6.25183
G1 X93.934 Y98.956 E6.93929
G1 X94.570 Y98.260 E6.99046
G1 X106.746 Y98.260 E7.65093
G1 X106.965 Y97.564 E7.69050
G1 X94.853 Y97.564 E8.34748
G1 X94.919 Y96.868 E8.38541
G1 X107.272 Y96.868 E9.05552
G1 X107.674 Y96.172 E9.09912
G1 X94.772 Y96.172 E9.79896
G1 X94.386 Y95.476 E9.84213
G1 X108.192 Y95.476 E10.59097
G1 X108.880 Y94.780 E10.64405
G1 X93.462 Y94.780 E11.48037
G1 X91.529 Y94.780 F1800.000
G1 X83.462 Y94.780 E11.91794 F540.000
G1 X84.378 Y95.476 E11.98037
G1 X90.615 Y95.476 E12.31865
G1 X90.218 Y96.172 E12.36211
G1 X84.772 Y96.172 E12.65750
G1 X84.921 Y96.868 E12.69610
G1 X90.081 Y96.868 E12.97602
G1 X90.144 Y97.564 E13.01393
G1 X84.856 Y97.564 E13.30072
G1 X84.565 Y98.260 E13.34165
