; generated by Slic3r 1.1.7 on 2014-12-27 at 19:49:24

; perimeters extrusion width = 0.42mm
; infill extrusion width = 0.74mm
; solid infill extrusion width = 0.71mm
; top infill extrusion width = 0.71mm

G21 ; set units to millimeters
M107
M190 S70 ; wait for bed temperature to be reached
M104 S195 ; set temperature
G28 ; home all axes
G1 Z5 F5000 ; lift nozzle
M109 S195 ; wait for temperature to be reached
G90 ; use absolute coordinates
G92 E0
M82 ; use absolute distances for extrusion
G1 F1800.000 E-1.00000
G92 E0
G1 Z0.300 F1800.000
G1 X82.070 Y81.401 F1800.000
G1 E1.00000 F1800.000
G1 X83.033 Y80.519 E1.04425 F720.000
G1 X83.759 Y79.909 E1.07637
G1 X85.572 Y78.570 E1.15272
G1 X86.665 Y77.874 E1.19662
G1 X87.495 Y77.394 E1.22909
G1 X88.644 Y76.796 E1.27298
G1 X89.512 Y76.391 E1.30544
G1 X90.715 Y75.892 E1.34955
G1 X91.610 Y75.566 E1.38181
G1 X93.772 Y74.928 E1.45816
G1 X95.980 Y74.481 E1.53450
G1 X98.220 Y74.227 E1.61084
G1 X100.473 Y74.170 E1.68719
G1 X101.766 Y74.227 E1.73106
G1 X102.722 Y74.310 E1.76355 F720.000
G1 X104.008 Y74.479 E1.80748
G1 X104.951 Y74.645 E1.83991
G1 X106.215 Y74.925 E1.88379
G1 X107.142 Y75.173 E1.91628
G1 X108.388 Y75.566 E1.96052
G1 X109.279 Y75.890 E1.99265
G1 X110.476 Y76.386 E2.03654
G1 X111.344 Y76.790 E2.06900
G1 X112.503 Y77.393 E2.11323
G1 X113.324 Y77.867 E2.14537
G1 X114.423 Y78.567 E2.18951
G1 X115.203 Y79.113 E2.22174
G1 X116.231 Y79.902 E2.26563
G1 X116.965 Y80.517 E2.29810
G1 X118.599 Y82.070 E2.37444
G1 X119.482 Y83.034 E2.41873
G1 X120.091 Y83.759 E2.45081
G1 X121.430 Y85.572 E2.52716
G1 X122.126 Y86.665 E2.57106
G1 X122.606 Y87.495 E2.60353
G1 X123.204 Y88.645 E2.64744
G1 X123.609 Y89.512 E2.67987
G1 X124.108 Y90.715 E2.72399
G1 X124.434 Y91.610 E2.75624
G1 X125.072 Y93.772 E2.83260
G1 X125.519 Y95.980 E2.90894
G1 X125.773 Y98.220 E2.98528
G1 X125.830 Y100.468 E3.06148
G1 X125.690 Y102.722 E3.13797
G1 X125.356 Y104.949 E3.21426
G1 X124.828 Y107.139 E3.29055
G1 X124.110 Y109.279 E3.36702
G1 X123.211 Y111.343 E3.44328
G1 X122.135 Y113.320 E3.51953
G1 X120.889 Y115.200 E3.59594
G1 X119.483 Y116.965 E3.67237
G1 X117.932 Y118.597 E3.74865
G1 X116.242 Y120.089 E3.82503
G1 X114.428 Y121.430 E3.90144
G1 X112.505 Y122.606 E3.97779
G1 X110.490 Y123.608 E4.05404
G1 X108.393 Y124.433 E4.13038
G1 X106.230 Y125.072 E4.20677
G1 X104.023 Y125.519 E4.28306
G1 X101.782 Y125.773 E4.35946
G1 X99.532 Y125.830 E4.43571
G1 X97.278 Y125.690 E4.51221
G1 X95.052 Y125.356 E4.58846
G1 X92.850 Y124.825 E4.66517
G1 X90.721 Y124.110 E4.74125
G1 X88.657 Y123.211 E4.81752
G1 X86.680 Y122.135 E4.89377
G1 X84.800 Y120.889 E4.97017
G1 X83.035 Y119.483 E5.04660
G1 X81.403 Y117.932 E5.12288
G1 X79.910 Y116.242 E5.19926
G1 X78.570 Y114.428 E5.27567
G1 X77.394 Y112.505 E5.35202
G1 X76.392 Y110.490 E5.42827
G1 X75.567 Y108.392 E5.50465
G1 X74.928 Y106.230 E5.58100
G1 X74.481 Y104.022 E5.65731
G1 X74.227 Y101.782 E5.73369
G1 X74.170 Y99.527 E5.81009
G1 X74.227 Y98.234 E5.85395
G1 X74.310 Y97.278 E5.88645
G1 X74.479 Y95.992 E5.93038
G1 X74.645 Y95.049 E5.96281
G1 X74.925 Y93.785 E6.00669
G1 X75.173 Y92.858 E6.03918
G1 X75.566 Y91.612 E6.08342
G1 X75.890 Y90.721 E6.11555
G1 X76.386 Y89.524 E6.15944
G1 X76.790 Y88.656 E6.19190
G1 X77.393 Y87.498 E6.23610
G1 X77.867 Y86.676 E6.26827
G1 X78.567 Y85.578 E6.31238
G1 X79.113 Y84.797 E6.34463
G1 X79.902 Y83.769 E6.38853
G1 X80.517 Y83.035 E6.42100
G1 X82.026 Y81.447 E6.49520
G1 X82.354 Y81.711 F1800.000
G1 X83.317 Y80.829 E6.53945 F720.000
G1 X84.015 Y80.243 E6.57033
G1 X85.798 Y78.925 E6.64544
G1 X86.891 Y78.228 E6.68934
G1 X87.689 Y77.767 E6.72057
G1 X88.838 Y77.169 E6.76445
G1 X89.673 Y76.779 E6.79567
G1 X90.876 Y76.280 E6.83979
G1 X91.736 Y75.967 E6.87080
G1 X93.863 Y75.338 E6.94591
G1 X96.035 Y74.897 E7.02101
G1 X98.238 Y74.647 E7.09611
G1 X100.455 Y74.590 E7.17123
G1 X101.748 Y74.646 E7.21509
G1 X102.667 Y74.726 E7.24634 F720.000
G1 X103.953 Y74.895 E7.29027
G1 X104.860 Y75.055 E7.32146
G1 X106.124 Y75.335 E7.36534
G1 X107.016 Y75.573 E7.39659
G1 X108.261 Y75.966 E7.44083
G1 X109.118 Y76.278 E7.47172
G1 X110.315 Y76.774 E7.51560
G1 X111.150 Y77.163 E7.54683
G1 X112.308 Y77.765 E7.59105
G1 X113.099 Y78.221 E7.62195
G1 X114.198 Y78.922 E7.66609
G1 X114.947 Y79.446 E7.69708
G1 X115.975 Y80.235 E7.74097
G1 X116.682 Y80.827 E7.77221
G1 X118.289 Y82.354 E7.84730
G1 X119.172 Y83.317 E7.89158
G1 X119.757 Y84.015 E7.92243
G1 X121.075 Y85.798 E7.99754
G1 X121.772 Y86.891 E8.04144
G1 X122.233 Y87.689 E8.07267
G1 X122.832 Y88.839 E8.11657
G1 X123.221 Y89.673 E8.14777
G1 X123.720 Y90.876 E8.19189
G1 X124.033 Y91.736 E8.22290
G1 X124.662 Y93.863 E8.29801
G1 X125.103 Y96.035 E8.37311
G1 X125.353 Y98.238 E8.44821
G1 X125.410 Y100.450 E8.52318
G1 X125.274 Y102.667 E8.59843
G1 X124.945 Y104.858 E8.67348
G1 X124.428 Y107.012 E8.74852
G1 X123.722 Y109.118 E8.82375
G1 X122.838 Y111.149 E8.89878
G1 X121.781 Y113.095 E8.97379
G1 X120.556 Y114.944 E9.04895
G1 X119.174 Y116.681 E9.12414
G1 X117.648 Y118.287 E9.19918
G1 X115.987 Y119.756 E9.27432
G1 X114.202 Y121.075 E9.34948
G1 X112.311 Y122.233 E9.42460
G1 X110.329 Y123.220 E9.49961
G1 X108.266 Y124.032 E9.57471
G1 X106.139 Y124.662 E9.64985
G1 X103.968 Y125.103 E9.72490
G1 X101.763 Y125.353 E9.80006
G1 X99.550 Y125.410 E9.87508
G1 X97.333 Y125.274 E9.95032
G1 X95.143 Y124.946 E10.02534
G1 X92.977 Y124.424 E10.10081
G1 X90.882 Y123.722 E10.17565
G1 X88.851 Y122.838 E10.25067
G1 X86.905 Y121.781 E10.32569
G1 X85.056 Y120.556 E10.40085
G1 X83.319 Y119.174 E10.47603
G1 X81.713 Y117.648 E10.55108
G1 X80.244 Y115.986 E10.62622
G1 X78.925 Y114.202 E10.70138
G1 X77.767 Y112.311 E10.77649
G1 X76.780 Y110.329 E10.85150
G1 X75.967 Y108.265 E10.92664
G1 X75.338 Y106.139 E11.00175
G1 X74.897 Y103.967 E11.07682
G1 X74.647 Y101.763 E11.15196
G1 X74.590 Y99.545 E11.22712
G1 X74.646 Y98.252 E11.27098
G1 X74.726 Y97.333 E11.30224
G1 X74.895 Y96.047 E11.34616
G1 X75.055 Y95.140 E11.37735
G1 X75.335 Y93.876 E11.42123
G1 X75.573 Y92.984 E11.45248
G1 X75.966 Y91.739 E11.49672
G1 X76.278 Y90.882 E11.52761
G1 X76.774 Y89.685 E11.57149
G1 X77.163 Y88.850 E11.60272
G1 X77.765 Y87.692 E11.64692
G1 X78.221 Y86.901 E11.67785
G1 X78.921 Y85.803 E11.72196
G1 X79.446 Y85.053 E11.75297
G1 X80.235 Y84.025 E11.79686
G1 X80.827 Y83.318 E11.82810
G1 X82.310 Y81.757 E11.90106
G1 F1800.000 E10.90106
G92 E0
G1 X105.581 Y105.580 F1800.000
G1 E1.00000 F1800.000
G1 X105.073 Y106.046 E1.02334 F540.000
G1 X104.527 Y106.464 E1.04664
G1 X103.946 Y106.834 E1.06998
G1 X103.335 Y107.153 E1.09331
G1 X102.616 Y107.442 E1.11958
G1 X102.043 Y107.623 E1.13993
G1 X101.370 Y107.772 E1.16328
G1 X100.689 Y107.862 E1.18655
G1 X99.999 Y107.892 E1.20993
G1 X99.313 Y107.862 E1.23321
G1 X98.629 Y107.772 E1.25656
G1 X97.957 Y107.623 E1.27988
G1 X97.301 Y107.416 E1.30318
G1 X96.665 Y107.152 E1.32652
G1 X96.054 Y106.834 E1.34985
G1 X95.474 Y106.465 E1.37315
G1 X94.927 Y106.045 E1.39649
G1 X94.420 Y105.581 E1.41979
G1 X93.954 Y105.073 E1.44314
G1 X93.536 Y104.527 E1.46643
G1 X93.125 Y103.868 E1.49273
G1 X92.847 Y103.335 E1.51309
G1 X92.584 Y102.699 E1.53640
G1 X92.358 Y101.957 E1.56268
G1 X92.228 Y101.370 E1.58306
G1 X92.138 Y100.689 E1.60633
G1 X92.108 Y100.000 E1.62968
G1 X92.138 Y99.311 E1.65303
G1 X92.228 Y98.630 E1.67631
G1 X92.377 Y97.957 E1.69966
G1 X92.584 Y97.301 E1.72298
G1 X92.847 Y96.665 E1.74629
G1 X93.166 Y96.054 E1.76962
G1 X93.536 Y95.473 E1.79296
G1 X93.954 Y94.927 E1.81625
G1 X94.420 Y94.419 E1.83960
G1 X94.927 Y93.955 E1.86289
G1 X95.474 Y93.535 E1.88624
G1 X96.054 Y93.166 E1.90954
G1 X96.665 Y92.848 E1.93287
G1 X97.301 Y92.584 E1.95621
G1 X97.957 Y92.377 E1.97950
G1 X98.629 Y92.228 E2.00282
G1 X99.313 Y92.138 E2.02618
G1 X99.999 Y92.108 E2.04946
G1 X100.601 Y92.134 E2.06986
G1 X101.370 Y92.228 E2.09610 F540.000
G1 X102.043 Y92.377 E2.11945
G1 X102.699 Y92.584 E2.14277
G1 X103.335 Y92.847 E2.16608
G1 X103.868 Y93.125 E2.18644
G1 X104.527 Y93.536 E2.21274
G1 X105.073 Y93.954 E2.23603
G1 X105.581 Y94.420 E2.25938
G1 X106.045 Y94.927 E2.28268
G1 X106.411 Y95.404 E2.30305
G1 X106.834 Y96.054 E2.32931
G1 X107.152 Y96.665 E2.35264
G1 X107.416 Y97.301 E2.37598
G1 X107.623 Y97.957 E2.39928
G1 X107.772 Y98.629 E2.42259
G1 X107.862 Y99.313 E2.44595
G1 X107.892 Y100.000 E2.46926
G1 X107.862 Y100.687 E2.49256
G1 X107.772 Y101.371 E2.51592
G1 X107.623 Y102.043 E2.53924
G1 X107.416 Y102.699 E2.56253
G1 X107.152 Y103.335 E2.58587
G1 X106.834 Y103.946 E2.60920
G1 X106.465 Y104.526 E2.63250
G1 X106.045 Y105.073 E2.65585
G1 X105.623 Y105.534 E2.67701
G1 X105.283 Y105.283 F1800.000
G1 X104.802 Y105.724 E2.69910 F540.000
G1 X104.286 Y106.120 E2.72116
G1 X103.736 Y106.470 E2.74325
G1 X103.157 Y106.771 E2.76535
G1 X102.489 Y107.042 E2.78976
G1 X101.934 Y107.217 E2.80948
G1 X101.297 Y107.358 E2.83158
G1 X100.652 Y107.443 E2.85363
G1 X99.999 Y107.471 E2.87575
G1 X99.349 Y107.443 E2.89780
G1 X98.702 Y107.358 E2.91990
G1 X98.066 Y107.217 E2.94198
G1 X97.445 Y107.021 E2.96404
G1 X96.842 Y106.771 E2.98613
G1 X96.264 Y106.470 E3.00822
G1 X95.715 Y106.120 E3.03028
G1 X95.197 Y105.723 E3.05238
G1 X94.717 Y105.283 E3.07444
G1 X94.276 Y104.802 E3.09654
G1 X93.880 Y104.286 E3.11859
G1 X93.530 Y103.736 E3.14068
G1 X93.229 Y103.157 E3.16277
G1 X92.979 Y102.556 E3.18484
G1 X92.783 Y101.934 E3.20692
G1 X92.642 Y101.297 E3.22902
G1 X92.557 Y100.652 E3.25107
G1 X92.529 Y100.000 E3.27317
G1 X92.554 Y99.418 E3.29292
G1 X92.642 Y98.703 E3.31730
G1 X92.783 Y98.066 E3.33941
G1 X92.979 Y97.444 E3.36149
G1 X93.229 Y96.843 E3.38355
G1 X93.530 Y96.264 E3.40564
G1 X93.880 Y95.714 E3.42773
G1 X94.276 Y95.198 E3.44979
G1 X94.717 Y94.717 E3.47189
G1 X95.197 Y94.277 E3.49395
G1 X95.715 Y93.880 E3.51604
G1 X96.264 Y93.530 E3.53811
G1 X96.842 Y93.229 E3.56019
G1 X97.445 Y92.979 E3.58229
G1 X98.066 Y92.783 E3.60435
G1 X98.702 Y92.642 E3.62642
G1 X99.349 Y92.557 E3.64853
G1 X99.930 Y92.532 E3.66822
G1 X100.652 Y92.557 E3.69269 F540.000
G1 X101.297 Y92.642 E3.71473
G1 X101.934 Y92.783 E3.73684
G1 X102.556 Y92.979 E3.75891
G1 X103.157 Y93.229 E3.78098
G1 X103.736 Y93.530 E3.80307
G1 X104.286 Y93.880 E3.82516
G1 X104.802 Y94.276 E3.84722
G1 X105.283 Y94.717 E3.86932
G1 X105.723 Y95.197 E3.89138
G1 X106.120 Y95.715 E3.91347
G1 X106.470 Y96.264 E3.93554
G1 X106.771 Y96.842 E3.95762
G1 X107.021 Y97.445 E3.97971
G1 X107.217 Y98.066 E4.00178
G1 X107.358 Y98.702 E4.02385
G1 X107.434 Y99.280 E4.04361
G1 X107.471 Y100.000 E4.06802
G1 X107.443 Y100.651 E4.09009
G1 X107.358 Y101.298 E4.11219
G1 X107.217 Y101.934 E4.13427
G1 X107.021 Y102.555 E4.15633
G1 X106.771 Y103.158 E4.17842
G1 X106.470 Y103.736 E4.20051
G1 X106.120 Y104.285 E4.22257
G1 X105.723 Y104.803 E4.24467
G1 X105.326 Y105.236 E4.26459
G1 X104.986 Y104.986 F1800.000
G1 X104.532 Y105.401 E4.28544 F540.000
G1 X104.045 Y105.776 E4.30626
G1 X103.526 Y106.106 E4.32711
G1 X102.980 Y106.390 E4.34795
G1 X102.363 Y106.641 E4.37051
G1 X101.825 Y106.811 E4.38961
G1 X101.224 Y106.944 E4.41046
G1 X100.615 Y107.024 E4.43128
G1 X100.000 Y107.051 E4.45215
G1 X99.386 Y107.024 E4.47296
G1 X98.775 Y106.944 E4.49381
G1 X98.175 Y106.811 E4.51465
G1 X97.589 Y106.626 E4.53548
G1 X97.020 Y106.390 E4.55632
G1 X96.474 Y106.106 E4.57716
G1 X95.956 Y105.776 E4.59799
G1 X95.468 Y105.401 E4.61884
G1 X95.014 Y104.986 E4.63966
G1 X94.599 Y104.532 E4.66051
G1 X94.224 Y104.045 E4.68133
G1 X93.870 Y103.480 E4.70390
G1 X93.610 Y102.980 E4.72302
G1 X93.374 Y102.412 E4.74384
G1 X93.178 Y101.775 E4.76640
G1 X93.056 Y101.224 E4.78553
G1 X92.976 Y100.615 E4.80634
G1 X92.949 Y100.000 E4.82719
G1 X92.976 Y99.385 E4.84805
G1 X93.056 Y98.776 E4.86886
G1 X93.189 Y98.175 E4.88971
G1 X93.359 Y97.637 E4.90882
G1 X93.610 Y97.020 E4.93137
G1 X93.894 Y96.474 E4.95221
G1 X94.224 Y95.955 E4.97306
G1 X94.599 Y95.468 E4.99388
G1 X95.014 Y95.014 E5.01473
G1 X95.468 Y94.599 E5.03556
G1 X95.956 Y94.224 E5.05640
G1 X96.474 Y93.894 E5.07723
G1 X97.020 Y93.610 E5.09807
G1 X97.589 Y93.374 E5.11892
G1 X98.175 Y93.189 E5.13974
G1 X98.775 Y93.056 E5.16058
G1 X99.386 Y92.976 E5.18143
G1 X100.000 Y92.949 E5.20225
G1 X100.564 Y92.974 E5.22138
G1 X101.224 Y93.056 E5.24392 F540.000
G1 X101.825 Y93.189 E5.26477
G1 X102.412 Y93.374 E5.28561
G1 X102.980 Y93.610 E5.30644
G1 X103.480 Y93.870 E5.32555
G1 X104.045 Y94.224 E5.34812
G1 X104.532 Y94.599 E5.36894
G1 X104.986 Y95.014 E5.38979
G1 X105.401 Y95.468 E5.41062
G1 X105.745 Y95.915 E5.42974
G1 X106.106 Y96.474 E5.45229
G1 X106.390 Y97.020 E5.47313
G1 X106.626 Y97.589 E5.49397
G1 X106.811 Y98.175 E5.51480
G1 X106.944 Y98.775 E5.53563
G1 X107.024 Y99.386 E5.55649
G1 X107.051 Y100.000 E5.57732
G1 X107.024 Y100.614 E5.59815
G1 X106.944 Y101.225 E5.61900
G1 X106.811 Y101.825 E5.63984
G1 X106.626 Y102.411 E5.66066
G1 X106.390 Y102.980 E5.68151
G1 X106.106 Y103.526 E5.70235
G1 X105.776 Y104.044 E5.72318
G1 X105.401 Y104.532 E5.74403
G1 X105.029 Y104.939 E5.76271
G1 X104.689 Y104.688 F1800.000
G1 X104.262 Y105.079 E5.78232 F540.000
G1 X103.803 Y105.431 E5.80190
G1 X103.315 Y105.742 E5.82150
G1 X102.802 Y106.009 E5.84110
G1 X102.237 Y106.241 E5.86180
G1 X101.716 Y106.405 E5.88028
G1 X101.151 Y106.530 E5.89989
G1 X100.578 Y106.605 E5.91947
G1 X100.000 Y106.631 E5.93908
G1 X99.422 Y106.605 E5.95866
G1 X98.848 Y106.530 E5.97827
G1 X98.284 Y106.405 E5.99786
G1 X97.732 Y106.231 E6.01745
G1 X97.198 Y106.009 E6.03705
G1 X96.685 Y105.742 E6.05665
G1 X96.197 Y105.432 E6.07623
G1 X95.738 Y105.079 E6.09584
G1 X95.312 Y104.689 E6.11542
G1 X94.921 Y104.262 E6.13502
G1 X94.569 Y103.803 E6.15461
G1 X94.258 Y103.315 E6.17421
G1 X93.991 Y102.802 E6.19381
G1 X93.759 Y102.237 E6.21450
G1 X93.595 Y101.716 E6.23299
G1 X93.470 Y101.151 E6.25259
G1 X93.395 Y100.578 E6.27217
G1 X93.369 Y100.000 E6.29178
G1 X93.393 Y99.455 E6.31027
G1 X93.470 Y98.849 E6.33096
G1 X93.595 Y98.284 E6.35056
G1 X93.769 Y97.732 E6.37016
G1 X93.991 Y97.198 E6.38975
G1 X94.258 Y96.685 E6.40935
G1 X94.569 Y96.197 E6.42895
G1 X94.921 Y95.738 E6.44853
G1 X95.312 Y95.311 E6.46813
G1 X95.738 Y94.921 E6.48772
G1 X96.197 Y94.568 E6.50732
G1 X96.685 Y94.258 E6.52691
G1 X97.198 Y93.991 E6.54651
G1 X97.732 Y93.769 E6.56611
G1 X98.284 Y93.595 E6.58570
G1 X98.848 Y93.470 E6.60529
G1 X99.422 Y93.395 E6.62490
G1 X99.967 Y93.371 E6.64337
G1 X100.578 Y93.395 E6.66409 F540.000
G1 X101.151 Y93.470 E6.68367
G1 X101.716 Y93.595 E6.70327
G1 X102.268 Y93.769 E6.72287
G1 X102.802 Y93.991 E6.74245
G1 X103.315 Y94.258 E6.76205
G1 X103.803 Y94.569 E6.78165
G1 X104.262 Y94.921 E6.80124
G1 X104.689 Y95.312 E6.82084
G1 X105.079 Y95.738 E6.84043
G1 X105.432 Y96.197 E6.86003
G1 X105.742 Y96.685 E6.87962
G1 X106.009 Y97.198 E6.89922
G1 X106.231 Y97.732 E6.91882
G1 X106.405 Y98.284 E6.93840
G1 X106.530 Y98.848 E6.95800
G1 X106.601 Y99.390 E6.97649
G1 X106.631 Y100.000 E6.99719
G1 X106.605 Y100.578 E7.01678
G1 X106.530 Y101.152 E7.03639
G1 X106.405 Y101.716 E7.05598
G1 X106.231 Y102.268 E7.07557
G1 X106.009 Y102.802 E7.09517
G1 X105.742 Y103.315 E7.11476
G1 X105.432 Y103.803 E7.13435
G1 X105.079 Y104.262 E7.15395
G1 X104.731 Y104.642 E7.17141
G1 X104.391 Y104.391 F1800.000
G1 X103.992 Y104.757 E7.18976 F540.000
G1 X103.562 Y105.087 E7.20811
G1 X103.105 Y105.378 E7.22647
G1 X102.625 Y105.628 E7.24482
G1 X102.110 Y105.840 E7.26366
G1 X101.607 Y105.999 E7.28152
G1 X101.078 Y106.116 E7.29988
G1 X100.541 Y106.187 E7.31823
G1 X100.000 Y106.210 E7.33658
G1 X99.459 Y106.187 E7.35493
G1 X98.922 Y106.116 E7.37329
G1 X98.393 Y105.999 E7.39164
G1 X97.876 Y105.836 E7.40999
G1 X97.375 Y105.628 E7.42835
G1 X96.895 Y105.378 E7.44670
G1 X96.438 Y105.087 E7.46505
G1 X96.008 Y104.757 E7.48340
G1 X95.609 Y104.391 E7.50175
G1 X95.243 Y103.992 E7.52011
G1 X94.913 Y103.562 E7.53846
G1 X94.615 Y103.092 E7.55730
G1 X94.372 Y102.625 E7.57517
G1 X94.164 Y102.124 E7.59352
G1 X94.001 Y101.607 E7.61187
G1 X93.884 Y101.078 E7.63022
G1 X93.813 Y100.541 E7.64857
G1 X93.790 Y100.000 E7.66693
G1 X93.813 Y99.473 E7.68480
G1 X93.884 Y98.922 E7.70363
G1 X94.001 Y98.393 E7.72199
G1 X94.160 Y97.890 E7.73985
G1 X94.372 Y97.375 E7.75869
G1 X94.622 Y96.895 E7.77704
G1 X94.913 Y96.438 E7.79540
G1 X95.243 Y96.008 E7.81375
G1 X95.609 Y95.609 E7.83210
G1 X96.008 Y95.243 E7.85045
G1 X96.438 Y94.913 E7.86881
