; generated by PrusaSlicer 2.2.0+win64 on 2020-06-16 at 18:31:21 UTC

; 

; external perimeters extrusion width = 0.50mm
; perimeters extrusion width = 0.50mm
; infill extrusion width = 0.50mm
; solid infill extrusion width = 0.50mm
; top infill extrusion width = 0.40mm
; first layer extrusion width = 0.50mm

M107
M190 S90 ; set bed temperature and wait for it to be reached
M104 S250 ; set temperature
M82 ;absolute extrusion mode
G21 ;metric values
G90 ;absolute positioning
M82 ;set extruder to absolute mode
M107 ;start with the fan off
G29 S2; clears existing bed heightmap
; For automesh
; Replaced marker: M557 TBD  ; parameters will be set automatically
; Replaced marker: M557 X-23:23 Y-58:58 P3:4
; Replaced marker: M557 X-23:23 Y-58:58 P3:4
M557 X-23:23 Y-58:58 P3:4
; End marker
; End marker
; End marker
G28; 

G32; motorized gantry plane correction
G32;
G32; Repeated 3 times to ensure its correct

G29  Mesh Bed compensation (disabled for test)

G1 Z20 F6000 ;move the platform down 15mm
G1 F100 E9 ;extrude 9mm of feed stock
G92 E0 ;zero the extruded length
M109 S250 ; set temperature and wait for it to be reached
G21 ; set units to millimeters
G90 ; use absolute coordinates
M83 ; use relative distances for extrusion
; Filament gcode
; Automesh: begin layer 0
G1 Z0.250 F7800.000
G1 E-1.00000 F2400.00000
G1 Z0.450 F7800.000
G1 X12.957 Y-0.002
G1 Z0.250
G1 E1.00000 F1200.00000
G1 F600.000
G1 X12.964 Y41.706 E1.68339
G1 X12.901 Y42.560 E0.03458
G1 X12.713 Y43.404 E0.03488
G1 X12.393 Y44.231 E0.03581
G1 X11.918 Y45.061 E0.03859
G1 X11.368 Y45.755 E0.03575
G1 X10.725 Y46.360 E0.03564
G1 X9.948 Y46.903 E0.03827
G1 X9.188 Y47.287 E0.03436
G1 X8.258 Y47.608 E0.03969
G1 X7.443 Y47.773 E0.03358
G1 X6.562 Y47.838 E0.03564
G1 X-6.522 Y47.839 E0.52809
G1 X-7.483 Y47.768 E0.03891
G1 X-8.513 Y47.537 E0.04261
G1 X-9.535 Y47.127 E0.04444
G1 X-10.450 Y46.571 E0.04318
G1 X-11.293 Y45.834 E0.04521
G1 X-11.973 Y44.980 E0.04408
G1 X-12.468 Y44.070 E0.04181
G1 X-12.798 Y43.088 E0.04182
G1 X-12.954 Y42.021 E0.04353
G1 X-12.964 Y-41.700 E3.37910
G1 X-12.901 Y-42.560 E0.03481
G1 X-12.715 Y-43.398 E0.03465
G1 X-12.401 Y-44.216 E0.03535
G1 X-11.931 Y-45.042 E0.03836
G1 X-11.391 Y-45.729 E0.03529
G1 X-10.751 Y-46.338 E0.03564
G1 X-9.992 Y-46.877 E0.03758
G1 X-9.240 Y-47.265 E0.03413
G1 X-8.341 Y-47.586 E0.03854
G1 X-7.488 Y-47.767 E0.03519
G1 X-6.602 Y-47.837 E0.03587
G1 X6.499 Y-47.839 E0.52878
G1 X7.624 Y-47.746 E0.04557
G1 X8.789 Y-47.443 E0.04857
G1 X9.915 Y-46.922 E0.05008
G1 X10.923 Y-46.191 E0.05023
G1 X11.739 Y-45.311 E0.04846
G1 X12.363 Y-44.298 E0.04803
G1 X12.765 Y-43.221 E0.04641
G1 X12.951 Y-42.078 E0.04674
G1 X12.957 Y-0.062 E1.69581
G1 X12.512 Y-0.062 F7800.000
G1 F600.000
G1 X12.518 Y41.705 E1.68580
G1 X12.459 Y42.499 E0.03211
G1 X12.272 Y43.318 E0.03393
G1 X11.946 Y44.132 E0.03539
G1 X11.517 Y44.858 E0.03402
G1 X11.018 Y45.475 E0.03203
G1 X10.421 Y46.031 E0.03296
G1 X9.683 Y46.541 E0.03618
G1 X8.978 Y46.891 E0.03178
G1 X8.091 Y47.190 E0.03779
G1 X6.554 Y47.392 E0.06257
G1 X-6.515 Y47.393 E0.52748
G1 X-7.424 Y47.326 E0.03680
G1 X-8.379 Y47.111 E0.03948
G1 X-9.331 Y46.731 E0.04138
G1 X-10.188 Y46.210 E0.04047
G1 X-10.973 Y45.523 E0.04213
G1 X-11.608 Y44.723 E0.04122
G1 X-12.064 Y43.881 E0.03863
G1 X-12.368 Y42.966 E0.03891
G1 X-12.510 Y41.973 E0.04049
G1 X-12.518 Y-41.705 E3.37741
G1 X-12.459 Y-42.499 E0.03211
G1 X-12.285 Y-43.277 E0.03217
G1 X-11.990 Y-44.040 E0.03301
G1 X-11.548 Y-44.813 E0.03596
G1 X-11.041 Y-45.451 E0.03291
G1 X-10.446 Y-46.011 E0.03296
G1 X-9.721 Y-46.519 E0.03574
G1 X-9.023 Y-46.872 E0.03156
G1 X-8.160 Y-47.173 E0.03691
G1 X-6.581 Y-47.391 E0.06432
G1 X6.499 Y-47.393 E0.52792
G1 X7.543 Y-47.307 E0.04230
G1 X8.632 Y-47.025 E0.04541
G1 X9.685 Y-46.540 E0.04677
G1 X10.629 Y-45.855 E0.04709
G1 X11.389 Y-45.034 E0.04516
G1 X11.968 Y-44.089 E0.04470
G1 X12.338 Y-43.088 E0.04309
G1 X12.507 Y-42.022 E0.04356
G1 X12.512 Y-0.122 E1.69116
G1 X12.067 Y-0.122 F7800.000
G1 F600.000
G1 X12.071 Y41.700 E1.68800
G1 X12.016 Y42.438 E0.02986
G1 X11.843 Y43.195 E0.03136
G1 X11.537 Y43.952 E0.03296
G1 X11.136 Y44.624 E0.03159
G1 X10.674 Y45.190 E0.02946
G1 X10.122 Y45.698 E0.03030
G1 X9.431 Y46.171 E0.03381
G1 X8.781 Y46.489 E0.02922
G1 X7.932 Y46.769 E0.03604
G1 X6.545 Y46.945 E0.05645
G1 X-6.514 Y46.946 E0.52709
G1 X-7.361 Y46.884 E0.03426
G1 X-8.245 Y46.685 E0.03660
G1 X-9.127 Y46.333 E0.03832
G1 X-9.918 Y45.855 E0.03730
G1 X-10.650 Y45.215 E0.03924
G1 X-11.236 Y44.475 E0.03811
G1 X-11.657 Y43.697 E0.03569
G1 X-11.936 Y42.856 E0.03578
G1 X-12.065 Y41.933 E0.03761
G1 X-12.071 Y-41.700 E3.37555
G1 X-12.016 Y-42.438 E0.02986
G1 X-11.845 Y-43.190 E0.03115
G1 X-11.542 Y-43.943 E0.03275
G1 X-11.145 Y-44.611 E0.03138
G1 X-10.688 Y-45.174 E0.02925
G1 X-10.138 Y-45.685 E0.03030
G1 X-9.458 Y-46.156 E0.03339
G1 X-8.814 Y-46.476 E0.02901
G1 X-7.988 Y-46.756 E0.03521
G1 X-6.566 Y-46.945 E0.05791
G1 X6.499 Y-46.946 E0.52730
G1 X7.463 Y-46.867 E0.03908
G1 X8.467 Y-46.610 E0.04183
G1 X9.451 Y-46.160 E0.04365
G1 X10.328 Y-45.525 E0.04371
G1 X11.033 Y-44.765 E0.04184
G1 X11.570 Y-43.887 E0.04156
G1 X11.910 Y-42.962 E0.03976
G1 X12.063 Y-41.974 E0.04033
G1 X12.067 Y-0.182 E1.68681
G1 X10.080 Y-0.122 F7800.000
G1 F600.000
G1 X10.080 Y41.751 E1.69006
G1 X10.053 Y42.105 E0.01432
G1 X9.922 Y42.660 E0.02304
G1 X9.709 Y43.155 E0.02174
G1 X9.362 Y43.665 E0.02489
G1 X9.021 Y44.023 E0.01998
G1 X8.572 Y44.363 E0.02272
G1 X8.108 Y44.613 E0.02126
G1 X7.609 Y44.797 E0.02148
G1 X7.037 Y44.918 E0.02360
G1 X6.530 Y44.955 E0.02052
G1 X-6.536 Y44.955 E0.52733
G1 X-7.094 Y44.910 E0.02262
G1 X-7.668 Y44.779 E0.02376
G1 X-8.204 Y44.568 E0.02324
G1 X-8.695 Y44.281 E0.02295
G1 X-9.103 Y43.945 E0.02135
G1 X-9.495 Y43.495 E0.02409
G1 X-9.809 Y42.951 E0.02534
G1 X-10.007 Y42.355 E0.02537
G1 X-10.080 Y41.766 E0.02392
G1 X-10.080 Y-41.751 E3.37089
G1 X-10.053 Y-42.105 E0.01432
G1 X-9.922 Y-42.660 E0.02304
G1 X-9.709 Y-43.155 E0.02174
G1 X-9.362 Y-43.665 E0.02489
G1 X-9.021 Y-44.023 E0.01998
G1 X-8.572 Y-44.363 E0.02272
G1 X-8.108 Y-44.613 E0.02126
G1 X-7.609 Y-44.797 E0.02148
G1 X-7.037 Y-44.918 E0.02360
G1 X-6.529 Y-44.955 E0.02052
G1 X6.551 Y-44.954 E0.52793
G1 X7.190 Y-44.894 E0.02591
G1 X7.819 Y-44.728 E0.02625
G1 X8.464 Y-44.429 E0.02872
G1 X9.003 Y-44.038 E0.02686
G1 X9.437 Y-43.573 E0.02568
G1 X9.775 Y-43.024 E0.02601
G1 X9.994 Y-42.413 E0.02618
G1 X10.080 Y-41.767 E0.02633
G1 X10.080 Y-0.182 E1.67842
G1 X9.634 Y-0.122 F7800.000
G1 F600.000
G1 X9.634 Y41.742 E1.68971
G1 X9.610 Y42.052 E0.01254
G1 X9.493 Y42.535 E0.02006
G1 X9.309 Y42.956 E0.01853
G1 X9.006 Y43.396 E0.02157
G1 X8.713 Y43.700 E0.01704
G1 X8.319 Y43.995 E0.01987
G1 X7.913 Y44.211 E0.01858
G1 X7.472 Y44.372 E0.01893
G1 X6.961 Y44.478 E0.02104
G1 X6.522 Y44.509 E0.01778
G1 X-6.526 Y44.509 E0.52665
G1 X-7.042 Y44.466 E0.02088
G1 X-7.522 Y44.357 E0.01990
G1 X-7.996 Y44.173 E0.02049
G1 X-8.428 Y43.923 E0.02015
G1 X-8.782 Y43.635 E0.01842
G1 X-9.122 Y43.249 E0.02076
G1 X-9.394 Y42.785 E0.02174
G1 X-9.567 Y42.275 E0.02171
G1 X-9.634 Y41.752 E0.02129
G1 X-9.634 Y-41.742 E3.36996
G1 X-9.610 Y-42.052 E0.01254
G1 X-9.493 Y-42.535 E0.02006
G1 X-9.309 Y-42.956 E0.01853
G1 X-9.006 Y-43.396 E0.02157
G1 X-8.713 Y-43.700 E0.01704
G1 X-8.319 Y-43.995 E0.01987
G1 X-7.913 Y-44.211 E0.01858
G1 X-7.472 Y-44.372 E0.01893
G1 X-6.961 Y-44.478 E0.02104
G1 X-6.522 Y-44.509 E0.01778
G1 X6.541 Y-44.508 E0.52723
G1 X7.096 Y-44.457 E0.02251
G1 X7.652 Y-44.313 E0.02318
G1 X8.223 Y-44.053 E0.02532
G1 X8.694 Y-43.715 E0.02341
G1 X9.071 Y-43.317 E0.02213
G1 X9.364 Y-42.847 E0.02234
G1 X9.555 Y-42.328 E0.02232
G1 X9.634 Y-41.751 E0.02349
G1 X9.634 Y-0.182 E1.67780
G1 X9.187 Y-0.122 F7800.000
G1 F600.000
G1 X9.187 Y41.733 E1.68934
G1 X9.166 Y41.998 E0.01071
G1 X9.065 Y42.407 E0.01702
G1 X8.911 Y42.753 E0.01530
G1 X8.652 Y43.124 E0.01825
G1 X8.407 Y43.374 E0.01412
G1 X8.068 Y43.625 E0.01703
G1 X7.719 Y43.809 E0.01590
G1 X7.337 Y43.946 E0.01640
G1 X6.888 Y44.037 E0.01848
G1 X6.515 Y44.062 E0.01510
G1 X-6.517 Y44.062 E0.52598
G1 X-6.989 Y44.023 E0.01912
G1 X-7.378 Y43.934 E0.01612
G1 X-7.790 Y43.777 E0.01777
G1 X-8.163 Y43.563 E0.01737
G1 X-8.460 Y43.325 E0.01537
G1 X-8.772 Y42.971 E0.01902
G1 X-8.997 Y42.581 E0.01817
G1 X-9.128 Y42.195 E0.01645
G1 X-9.187 Y41.737 E0.01865
G1 X-9.187 Y-41.733 E3.36900
G1 X-9.166 Y-41.998 E0.01071
G1 X-9.065 Y-42.407 E0.01702
G1 X-8.911 Y-42.753 E0.01530
G1 X-8.652 Y-43.124 E0.01825
G1 X-8.407 Y-43.374 E0.01412
G1 X-8.068 Y-43.625 E0.01703
G1 X-7.719 Y-43.809 E0.01590
G1 X-7.337 Y-43.946 E0.01640
G1 X-6.888 Y-44.037 E0.01848
G1 X-6.515 Y-44.062 E0.01510
G1 X6.531 Y-44.062 E0.52655
G1 X7.005 Y-44.020 E0.01920
G1 X7.488 Y-43.898 E0.02013
G1 X7.985 Y-43.675 E0.02194
G1 X8.386 Y-43.392 E0.01983
G1 X8.730 Y-43.028 E0.02023
G1 X8.971 Y-42.635 E0.01858
G1 X9.126 Y-42.201 E0.01860
G1 X9.187 Y-41.737 E0.01889
G1 X9.187 Y-0.182 E1.67723
G1 X8.741 Y-0.122 F7800.000
G1 F600.000
G1 X8.741 Y41.724 E1.68897
G1 X8.723 Y41.942 E0.00882
G1 X8.638 Y42.276 E0.01391
G1 X8.514 Y42.547 E0.01205
G1 X8.300 Y42.849 E0.01493
G1 X8.104 Y43.046 E0.01121
G1 X7.820 Y43.254 E0.01422
G1 X7.529 Y43.405 E0.01322
G1 X7.204 Y43.520 E0.01389
G1 X6.817 Y43.596 E0.01593
G1 X6.508 Y43.616 E0.01249
G1 X-6.508 Y43.616 E0.52536
G1 X-6.908 Y43.584 E0.01619
G1 X-7.237 Y43.510 E0.01362
G1 X-7.586 Y43.379 E0.01503
G1 X-7.901 Y43.201 E0.01462
G1 X-8.142 Y43.011 E0.01238
G1 X-8.399 Y42.724 E0.01555
G1 X-8.584 Y42.411 E0.01467
G1 X-8.689 Y42.112 E0.01279
G1 X-8.741 Y41.722 E0.01589
G1 X-8.741 Y-41.724 E3.36801
G1 X-8.723 Y-41.942 E0.00882
G1 X-8.638 Y-42.276 E0.01391
G1 X-8.514 Y-42.547 E0.01205
G1 X-8.300 Y-42.849 E0.01493
G1 X-8.104 Y-43.046 E0.01121
G1 X-7.820 Y-43.254 E0.01422
G1 X-7.529 Y-43.405 E0.01322
G1 X-7.204 Y-43.520 E0.01389
G1 X-6.817 Y-43.596 E0.01593
G1 X-6.508 Y-43.616 E0.01249
G1 X6.522 Y-43.615 E0.52592
G1 X6.916 Y-43.582 E0.01597
G1 X7.328 Y-43.481 E0.01710
G1 X7.749 Y-43.295 E0.01859
G1 X8.081 Y-43.065 E0.01630
G1 X8.366 Y-42.770 E0.01655
G1 X8.561 Y-42.457 E0.01489
G1 X8.688 Y-42.115 E0.01469
G1 X8.741 Y-41.722 E0.01604
G1 X8.741 Y-0.182 E1.67661
G1 F6240.000
G1 X8.741 Y2.418 E-0.95000
G1 E-0.05000 F2400.00000
G1 Z0.450 F7800.000
G1 X-8.280 Y-41.883
G1 Z0.250
G1 E1.00000 F1200.00000
G1 F600.000
G1 X-8.212 Y-42.140 E0.01071
G1 X-8.120 Y-42.337 E0.00878
G1 X-7.951 Y-42.570 E0.01163
G1 X-7.804 Y-42.715 E0.00833
G1 X-7.573 Y-42.882 E0.01149
G1 X-7.363 Y-42.990 E0.00955
G1 X-7.098 Y-43.086 E0.01135
G1 X-6.772 Y-43.152 E0.01343
G1 X-6.501 Y-43.170 E0.01098
G1 X6.514 Y-43.169 E0.52528
G1 X6.831 Y-43.144 E0.01284
G1 X7.171 Y-43.063 E0.01410
G1 X7.518 Y-42.913 E0.01526
G1 X7.780 Y-42.735 E0.01282
G1 X8.001 Y-42.511 E0.01267
G1 X8.169 Y-42.242 E0.01282
G1 X8.259 Y-41.991 E0.01076
G1 X8.295 Y-41.708 E0.01149
G1 X8.295 Y41.714 E3.36707
G1 X8.280 Y41.883 E0.00685
G1 X8.212 Y42.140 E0.01071
G1 X8.120 Y42.337 E0.00878
G1 X7.951 Y42.570 E0.01163
G1 X7.804 Y42.715 E0.00833
G1 X7.573 Y42.882 E0.01149
G1 X7.363 Y42.990 E0.00955
G1 X7.098 Y43.086 E0.01135
G1 X6.772 Y43.152 E0.01343
G1 X6.501 Y43.170 E0.01098
G1 X-6.500 Y43.170 E0.52473
G1 X-6.829 Y43.144 E0.01334
G1 X-7.099 Y43.086 E0.01114
G1 X-7.385 Y42.981 E0.01229
G1 X-7.643 Y42.837 E0.01191
G1 X-7.828 Y42.694 E0.00945
G1 X-8.027 Y42.476 E0.01190
G1 X-8.186 Y42.206 E0.01267
G1 X-8.258 Y41.993 E0.00908
G1 X-8.295 Y41.708 E0.01156
G1 X-8.285 Y-41.824 E3.37149
G1 X-7.789 Y-41.998 F7800.000
G1 F600.000
G1 X-7.729 Y-42.121 E0.00551
G1 X-7.605 Y-42.287 E0.00835
G1 X-7.508 Y-42.381 E0.00547
G1 X-7.329 Y-42.508 E0.00885
G1 X-6.989 Y-42.653 E0.01490
G1 X-6.726 Y-42.708 E0.01085
G1 X-6.493 Y-42.723 E0.00943
G1 X6.506 Y-42.723 E0.52466
G1 X6.749 Y-42.705 E0.00985
G1 X7.014 Y-42.644 E0.01094
G1 X7.319 Y-42.513 E0.01342
G1 X7.505 Y-42.383 E0.00915
G1 X7.660 Y-42.222 E0.00903
G1 X7.775 Y-42.031 E0.00897
G1 X7.819 Y-41.907 E0.00531
G1 X7.848 Y-41.693 E0.00874
G1 X7.848 Y41.704 E3.36603
G1 X7.838 Y41.822 E0.00478
G1 X7.789 Y41.998 E0.00739
G1 X7.729 Y42.121 E0.00551
G1 X7.605 Y42.287 E0.00835
G1 X7.508 Y42.381 E0.00547
G1 X7.329 Y42.508 E0.00885
G1 X7.195 Y42.577 E0.00610
G1 X6.989 Y42.653 E0.00883
G1 X6.726 Y42.708 E0.01085
G1 X6.493 Y42.723 E0.00943
G1 X-6.492 Y42.723 E0.52412
G1 X-6.751 Y42.704 E0.01046
G1 X-6.988 Y42.653 E0.00980
G1 X-7.210 Y42.570 E0.00956
G1 X-7.408 Y42.457 E0.00920
G1 X-7.517 Y42.373 E0.00557
G1 X-7.660 Y42.222 E0.00835
G1 X-7.775 Y42.031 E0.00901
G1 X-7.819 Y41.907 E0.00531
G1 X-7.848 Y41.693 E0.00874
G1 X-7.848 Y-41.704 E3.36603
G1 X-7.805 Y-41.940 E0.00970
; printing object Flex Tube Support.stl id:0 copy 0
G1 X-6.141 Y-41.023 F7800.000
G1 F600.000
G1 X6.147 Y-41.022 E0.50600
G1 X6.141 Y41.023 E3.37837
G1 X-6.147 Y41.023 E0.50600
G1 X-6.141 Y-40.963 E3.37592
G1 X-5.686 Y-40.567 F7800.000
G1 F600.000
G1 X5.692 Y-40.567 E0.46850
G1 X5.686 Y40.567 E3.34087
G1 X-5.692 Y40.567 E0.46850
G1 X-5.686 Y-40.507 E3.33841
G1 X-5.230 Y-40.112 F7800.000
G1 F600.000
G1 X5.237 Y-40.111 E0.43100
G1 X5.230 Y40.112 E3.30337
G1 X-5.237 Y40.112 E0.43100
G1 X-5.230 Y-40.052 E3.30091
G1 X-4.775 Y-39.656 F7800.000
G1 F600.000
G1 X4.781 Y-39.656 E0.39349
G1 X4.775 Y39.656 E3.26586
G1 X-4.781 Y39.656 E0.39349
G1 X-4.775 Y-39.596 E3.26341
G1 X-4.320 Y-39.201 F7800.000
G1 F600.000
G1 X4.326 Y-39.201 E0.35599
G1 X4.320 Y39.201 E3.22836
G1 X-4.326 Y39.201 E0.35599
G1 X-4.320 Y-39.141 E3.22591
G1 X-3.864 Y-38.746 F7800.000
G1 F600.000
G1 X3.870 Y-38.745 E0.31849
G1 X3.864 Y38.746 E3.19086
G1 X-3.870 Y38.746 E0.31849
G1 X-3.864 Y-38.686 E3.18840
G1 X-3.409 Y-38.290 F7800.000
G1 F600.000
G1 X3.415 Y-38.290 E0.28099
G1 X3.409 Y38.290 E3.15336
G1 X-3.415 Y38.290 E0.28099
G1 X-3.409 Y-38.230 E3.15090
G1 X-2.954 Y-37.835 F7800.000
G1 F600.000
G1 X2.960 Y-37.835 E0.24349
G1 X2.954 Y37.835 E3.11586
G1 X-2.960 Y37.835 E0.24349
G1 X-2.954 Y-37.775 E3.11340
G1 X-2.498 Y-37.379 F7800.000
G1 F600.000
G1 X2.504 Y-37.379 E0.20599
G1 X2.498 Y37.380 E3.07836
G1 X-2.504 Y37.380 E0.20599
G1 X-2.498 Y-37.319 E3.07590
G1 X-2.043 Y-36.924 F7800.000
G1 F600.000
G1 X2.049 Y-36.924 E0.16848
G1 X2.043 Y36.924 E3.04086
G1 X-2.049 Y36.924 E0.16848
G1 X-2.043 Y-36.864 E3.03839
G1 X-1.588 Y-36.469 F7800.000
G1 F600.000
G1 X1.593 Y-36.469 E0.13098
G1 X1.588 Y36.469 E3.00336
G1 X-1.593 Y36.469 E0.13098
G1 X-1.588 Y-36.409 E3.00089
G1 X-1.132 Y-36.013 F7800.000
G1 F600.000
G1 X1.138 Y-36.013 E0.09348
G1 X1.132 Y36.013 E2.96586
G1 X-1.138 Y36.013 E0.09348
G1 X-1.132 Y-35.953 E2.96339
G1 X-0.677 Y-35.558 F7800.000
G1 F600.000
G1 X0.683 Y-35.558 E0.05598
G1 X0.677 Y35.558 E2.92836
G1 X-0.683 Y35.558 E0.05598
G1 X-0.677 Y-35.498 E2.92589
G1 F6240.000
G1 X-0.677 Y-32.898 E-0.95000
G1 E-0.05000 F2400.00000
G1 Z0.450 F7800.000
G1 X-7.289 Y-41.928
G1 Z0.250
G1 E1.00000 F1200.00000
G1 F600.000
G1 X-7.203 Y-42.018 E0.00503
G1 X-7.090 Y-42.098 E0.00558
G1 X-6.847 Y-42.201 E0.01063
G1 X-6.678 Y-42.237 E0.00700
G1 X-6.485 Y-42.250 E0.00779
G1 X6.493 Y-42.250 E0.52380
G1 X6.678 Y-42.237 E0.00748
G1 X6.852 Y-42.200 E0.00722
G1 X7.009 Y-42.141 E0.00674
G1 X7.154 Y-42.057 E0.00677
G1 X7.254 Y-41.969 E0.00537
G1 X7.322 Y-41.877 E0.00462
G1 X7.361 Y-41.787 E0.00395
G1 X7.375 Y-41.683 E0.00425
G1 X7.368 Y41.750 E3.36747
G1 X7.289 Y41.928 E0.00788
G1 X7.203 Y42.018 E0.00503
G1 X7.090 Y42.098 E0.00558
G1 X6.847 Y42.201 E0.01063
G1 X6.678 Y42.237 E0.00700
G1 X6.485 Y42.250 E0.00779
G1 X-6.485 Y42.250 E0.52349
G1 X-6.678 Y42.237 E0.00779
G1 X-6.852 Y42.200 E0.00722
G1 X-7.004 Y42.143 E0.00655
G1 X-7.201 Y42.018 E0.00940
G1 X-7.325 Y41.870 E0.00779
G1 X-7.361 Y41.787 E0.00364
G1 X-7.375 Y41.683 E0.00425
G1 X-7.368 Y-41.750 E3.36747
G1 X-7.319 Y-41.876 E0.00548
G1 X-7.164 Y-41.930 F7800.000
G1 X-6.922 Y-41.685
G1 F600.000
G1 X-6.713 Y-41.773 E0.00916
G1 X-6.470 Y-41.804 E0.00990
G1 X6.477 Y-41.803 E0.52255
G1 X6.727 Y-41.770 E0.01018
G1 X6.929 Y-41.671 E0.00905
G1 X6.922 Y41.685 E3.36437
G1 X6.713 Y41.773 E0.00916
G1 X6.616 Y41.794 E0.00402
G1 X-6.470 Y41.804 E0.52814
G1 X-6.727 Y41.770 E0.01049
G1 X-6.929 Y41.662 E0.00922
G1 X-6.922 Y-41.625 E3.36158
G1 X-6.476 Y-41.357 F7800.000
G1 F600.000
G1 X6.482 Y-41.357 E0.52300
G1 X6.476 Y41.357 E3.33847
