; generated by PrusaSlicer 2.2.0+ on 2020-05-16 at 01:27:24 UTC

; 

; external perimeters extrusion width = 0.60mm
; perimeters extrusion width = 0.60mm
; infill extrusion width = 0.60mm
; solid infill extrusion width = 0.60mm
; top infill extrusion width = 0.60mm

M107
;----- Start G-coce script
; Manual temp setting. Heat both bed and extruder.
M140 S60                       ; start heating bed
M104 S255 T0    ; start heating extruder
M190 S60                       ; wait for bed temperature
M109 S255 T0   ; wait for extruder temperature

;; for automesh leveling
; Replaced marker: M557 TBD
M557 X124:197 Y30:159 P3:5
; End marker
G28  ;home
G29  ;mesh

M98 P"0:/macros/before_print_mesh"


M566 X600 Y600  Z100  E1200     ; Set maximum instantaneous speed changes (mm/min) (Jerk)
M201  X600 Y600 Z100   E1200     ; Set maximum accelerations (mm/s^2)

;M572 D0 S0.10  ; set pressure advance for smooth seam
M572 D0 S0.08  ; set pressure advance for smooth seam

;----- Start G-coce script end
G21 ; set units to millimeters
G90 ; use absolute coordinates
M82 ; use absolute distances for extrusion
G92 E0
;M900 K200 ; Filament gcode
;Automesh: begin layer 0
;M98 P"0:/macros/camera_click"





G1 Z0.370 F6000.000
;0.2mm layer, 8 bands 5mm each, total height 40mm
;
G1 E-1.00000 F2400.00000
G92 E0
G1 X168.557 Y148.271 F6000.000
G1 E1.00000 F2400.00000
G1 F900.000
G1 X167.534 Y148.047 E1.06999
G1 X166.587 Y147.599 E1.13998
G1 X163.078 Y144.863 E1.43722
G1 X160.488 Y142.611 E1.66654
G1 X158.022 Y140.274 E1.89348
G1 X154.404 Y136.451 E2.24512
G1 X151.068 Y132.426 E2.59435
G1 X149.079 Y129.745 E2.81735
G1 X147.231 Y127.023 E3.03717
G1 X144.485 Y122.469 E3.39238
G1 X142.101 Y117.850 E3.73966
G1 X140.045 Y113.139 E4.08305
G1 X138.258 Y108.182 E4.43507
G1 X137.296 Y104.982 E4.65833
G1 X136.458 Y101.695 E4.88491
G1 X135.452 Y96.627 E5.23007
G1 X134.772 Y91.458 E5.57841
G1 X134.433 Y86.309 E5.92310
G1 X134.430 Y81.136 E6.26867
G1 X134.762 Y75.977 E6.61405
G1 X135.166 Y72.578 E6.84276
G1 X135.705 Y69.261 E7.06722
G1 X136.825 Y64.130 E7.41805
G1 X138.271 Y59.118 E7.76656
G1 X139.386 Y55.912 E7.99333
G1 X140.624 Y52.790 E8.21768
G1 X142.819 Y48.018 E8.56861
G1 X145.307 Y43.433 E8.91710
G1 X147.094 Y40.527 E9.14497
G1 X148.931 Y37.805 E9.36436
G1 X152.150 Y33.547 E9.72095
G1 X155.514 Y29.661 E10.06433
G1 X159.144 Y25.977 E10.40985
G1 X163.037 Y22.511 E10.75807
G1 X165.723 Y20.369 E10.98755
G1 X166.871 Y19.594 E11.08010
G1 X167.736 Y19.261 E11.14199
G1 X168.649 Y19.108 E11.20388
G1 X181.712 Y18.621 E12.07714
G1 X182.587 Y18.706 E12.13586
G1 X183.429 Y18.956 E12.19457
G1 X184.209 Y19.361 E12.25329
G1 X184.902 Y19.911 E12.31236
G1 X185.473 Y20.579 E12.37107
G1 X185.910 Y21.347 E12.43014
G1 X186.190 Y22.180 E12.48886
G1 X186.308 Y23.057 E12.54792
G1 X186.359 Y143.673 E20.60571
G1 X186.236 Y144.361 E20.65242
G1 X186.008 Y145.028 E20.69949
G1 X185.684 Y145.647 E20.74621
G1 X185.270 Y146.211 E20.79292
G1 X184.776 Y146.705 E20.83964
G1 X184.212 Y147.119 E20.88636
G1 X183.587 Y147.445 E20.93342
G1 X182.925 Y147.670 E20.98014
G1 X181.967 Y147.812 E21.04485
G1 X168.632 Y148.268 E21.93620
G1 E20.93620 F2400.00000
G92 E0
G1 X183.878 Y146.695 F6000.000
G1 E1.00000 F2400.00000
G1 F900.000
G1 X182.721 Y147.169 E1.08359
G1 X181.942 Y147.277 E1.13612
G1 X168.605 Y147.737 E2.02758
G1 X167.631 Y147.514 E2.09435
G1 X166.737 Y147.057 E2.16145
G1 X164.724 Y145.512 E2.33096
G1 X162.132 Y143.355 E2.55623
G1 X158.293 Y139.787 E2.90637
G1 X155.984 Y137.398 E3.12830
G1 X153.737 Y134.865 E3.35455
G1 X150.524 Y130.823 E3.69946
G1 X147.598 Y126.606 E4.04236
G1 X144.952 Y122.206 E4.38539
G1 X142.582 Y117.614 E4.73055
G1 X140.544 Y112.943 E5.07105
G1 X138.770 Y108.023 E5.42047
G1 X137.812 Y104.840 E5.64247
G1 X136.978 Y101.568 E5.86805
G1 X135.979 Y96.535 E6.21088
G1 X135.304 Y91.402 E6.55671
G1 X134.969 Y86.290 E6.89896
G1 X134.965 Y81.162 E7.24156
G1 X135.296 Y76.027 E7.58529
G1 X135.697 Y72.654 E7.81220
G1 X136.233 Y69.354 E8.03555
G1 X137.344 Y64.264 E8.38362
G1 X138.779 Y59.288 E8.72957
G1 X139.887 Y56.101 E8.95504
G1 X141.119 Y52.993 E9.17837
G1 X143.297 Y48.260 E9.52644
G1 X145.767 Y43.708 E9.87237
G1 X147.544 Y40.817 E10.09912
G1 X149.370 Y38.112 E10.31714
G1 X152.558 Y33.895 E10.67027
G1 X155.909 Y30.022 E11.01243
G1 X159.511 Y26.367 E11.35527
G1 X163.376 Y22.925 E11.70101
G1 X166.020 Y20.816 E11.92693
G1 X167.114 Y20.071 E12.01537
G1 X167.881 Y19.777 E12.07023
G1 X168.696 Y19.642 E12.12541
G1 X181.711 Y19.156 E12.99552
G1 X182.484 Y19.232 E13.04739
G1 X183.233 Y19.454 E13.09960
G1 X183.926 Y19.816 E13.15180
G1 X184.537 Y20.303 E13.20400
G1 X185.043 Y20.898 E13.25621
G1 X185.427 Y21.579 E13.30841
G1 X185.673 Y22.321 E13.36061
G1 X185.773 Y23.096 E13.41281
G1 X185.826 Y143.620 E21.46450
G1 X185.510 Y144.831 E21.54809
G1 X184.838 Y145.892 E21.63201
G1 X183.936 Y146.647 E21.71058
G1 X183.596 Y146.231 F6000.000
G1 F900.000
G1 X183.557 Y146.263 E21.71396
G1 X182.531 Y146.663 E21.78752
G1 X181.914 Y146.742 E21.82905
G1 X168.661 Y147.204 E22.71499
G1 X167.799 Y147.005 E22.77411
G1 X167.013 Y146.598 E22.83323
G1 X165.056 Y145.091 E22.99824
G1 X162.467 Y142.936 E23.22326
G1 X159.961 Y140.661 E23.44936
G1 X157.572 Y138.297 E23.67391
G1 X154.112 Y134.479 E24.01814
G1 X150.951 Y130.500 E24.35763
G1 X148.019 Y126.270 E24.70146
G1 X146.264 Y123.421 E24.92495
G1 X144.626 Y120.487 E25.14950
G1 X142.382 Y115.905 E25.49032
G1 X140.430 Y111.161 E25.83301
G1 X138.802 Y106.331 E26.17352
G1 X137.490 Y101.406 E26.51403
G1 X136.501 Y96.406 E26.85455
G1 X135.838 Y91.352 E27.19506
G1 X135.504 Y86.260 E27.53593
G1 X135.501 Y81.176 E27.87560
G1 X135.830 Y76.063 E28.21785
G1 X136.230 Y72.707 E28.44364
G1 X136.767 Y69.408 E28.66694
G1 X137.868 Y64.374 E29.01118
G1 X139.292 Y59.440 E29.35428
G1 X140.397 Y56.267 E29.57873
G1 X141.630 Y53.160 E29.80201
G1 X143.786 Y48.480 E30.14629
G1 X146.236 Y43.967 E30.48934
G1 X147.995 Y41.106 E30.71366
G1 X149.811 Y38.415 E30.93059
G1 X152.981 Y34.223 E31.28170
G1 X156.314 Y30.372 E31.62190
G1 X159.890 Y26.746 E31.96211
G1 X163.703 Y23.350 E32.30325
G1 X166.337 Y21.248 E32.52837
G1 X167.356 Y20.549 E32.61090
G1 X168.027 Y20.292 E32.65892
G1 X168.736 Y20.176 E32.70694
G1 X181.706 Y19.692 E33.57402
G1 X182.385 Y19.758 E33.61957
G1 X183.038 Y19.953 E33.66512
G1 X183.642 Y20.270 E33.71067
G1 X184.170 Y20.694 E33.75591
G1 X184.608 Y21.211 E33.80115
G1 X184.941 Y21.806 E33.84670
G1 X185.154 Y22.453 E33.89225
G1 X185.238 Y23.125 E33.93749
G1 X185.293 Y143.569 E41.98378
G1 X185.009 Y144.638 E42.05765
G1 X184.413 Y145.563 E42.13121
G1 X183.654 Y146.184 E42.19669
G1 E41.19669 F2400.00000
G92 E0
G1 X166.810 Y139.485 F6000.000
G1 E1.00000 F2400.00000
G1 F900.000
G1 X166.032 Y138.824 E1.06818
G1 X164.864 Y137.786 E1.17259
G1 X163.705 Y136.710 E1.27825
G1 X162.569 Y135.610 E1.38388
G1 X161.444 Y134.471 E1.49079
G1 X160.370 Y133.336 E1.59521
G1 X159.308 Y132.164 E1.70086
G1 X158.272 Y130.970 E1.80650
G1 X157.250 Y129.738 E1.91340
G1 X156.277 Y128.515 E2.01782
G1 X155.330 Y127.268 E2.12240
G1 X154.390 Y125.974 E2.22928
G1 X153.476 Y124.655 E2.33647
G1 X152.617 Y123.357 E2.44049
G1 X151.788 Y122.045 E2.54410
G1 X150.958 Y120.665 E2.65174
G1 X150.163 Y119.276 E2.75862
G1 X149.416 Y117.903 E2.86304
G1 X148.691 Y116.498 E2.96868
G1 X147.988 Y115.061 E3.07558
G1 X147.331 Y113.642 E3.18000
G1 X146.699 Y112.193 E3.28565
G1 X146.097 Y110.730 E3.39129
G1 X145.521 Y109.237 E3.49819
G1 X144.990 Y107.767 E3.60261
G1 X144.485 Y106.269 E3.70827
G1 X144.012 Y104.759 E3.81392
G1 X143.572 Y103.240 E3.91957
G1 X143.165 Y101.712 E4.02522
G1 X142.792 Y100.175 E4.13088
G1 X142.451 Y98.631 E4.23651
G1 X142.141 Y97.061 E4.34342
G1 X141.871 Y95.522 E4.44784
G1 X141.631 Y93.959 E4.55349
G1 X141.426 Y92.391 E4.65913
G1 X141.252 Y90.800 E4.76603
G1 X141.116 Y89.243 E4.87045
G1 X141.013 Y87.665 E4.97610
G1 X140.944 Y86.087 E5.08159
G1 X140.908 Y84.469 E5.18970
G1 X140.907 Y82.920 E5.29322
G1 X140.940 Y81.369 E5.39685
G1 X141.008 Y79.761 E5.50438
G1 X141.110 Y78.183 E5.61002
G1 X141.244 Y76.625 E5.71444
G1 X141.415 Y75.034 E5.82134
G1 X141.619 Y73.466 E5.92698
G1 X141.857 Y71.903 E6.03263
G1 X142.128 Y70.345 E6.13828
G1 X142.430 Y68.811 E6.24270
G1 X142.772 Y67.248 E6.34961
G1 X143.144 Y65.711 E6.45524
G1 X143.544 Y64.200 E6.55966
G1 X143.987 Y62.662 E6.66656
G1 X144.458 Y61.153 E6.77220
G1 X144.962 Y59.654 E6.87786
G1 X145.491 Y58.183 E6.98227
G1 X146.065 Y56.689 E7.08918
G1 X146.665 Y55.226 E7.19481
G1 X147.296 Y53.776 E7.30047
G1 X147.951 Y52.357 E7.40488
G1 X148.652 Y50.918 E7.51179
G1 X149.375 Y49.512 E7.61743
G1 X150.121 Y48.138 E7.72184
G1 X150.914 Y46.749 E7.82875
G1 X151.727 Y45.392 E7.93439
G1 X152.565 Y44.062 E8.03943
G1 X153.444 Y42.730 E8.14603
G1 X154.340 Y41.436 E8.25119
G1 X155.250 Y40.179 E8.35485
G1 X156.224 Y38.893 E8.46267
G1 X157.207 Y37.653 E8.56830
G1 X158.204 Y36.450 E8.67272
G1 X159.251 Y35.239 E8.77962
G1 X160.311 Y34.066 E8.88526
G1 X161.397 Y32.917 E8.99092
G1 X162.494 Y31.804 E9.09533
G1 X163.642 Y30.688 E9.20224
G1 X164.800 Y29.611 E9.30787
G1 X165.981 Y28.560 E9.41353
G1 X166.744 Y27.909 E9.48049
G1 X166.744 Y28.352 E9.51006
G1 X164.920 Y29.957 E9.67233
G1 X163.740 Y31.059 E9.78023
G1 X162.753 Y32.022 E9.87230
G1 X161.455 Y33.341 E9.99596
G1 X160.349 Y34.522 E10.10405
G1 X159.271 Y35.725 E10.21194
G1 X158.374 Y36.771 E10.30402
G1 X157.198 Y38.200 E10.42769
G1 X156.201 Y39.475 E10.53578
G1 X155.234 Y40.769 E10.64371
G1 X154.296 Y42.084 E10.75159
G1 X153.520 Y43.223 E10.84367
G1 X152.509 Y44.774 E10.96735
G1 X151.660 Y46.151 E11.07543
G1 X150.842 Y47.543 E11.18330
G1 X150.170 Y48.747 E11.27539
G1 X149.301 Y50.382 E11.39908
G1 X148.577 Y51.828 E11.50715
G1 X147.887 Y53.288 E11.61502
G1 X147.324 Y54.546 E11.70711
G1 X146.603 Y56.252 E11.83081
G1 X146.011 Y57.757 E11.93888
G1 X145.452 Y59.273 E12.04681
G1 X144.927 Y60.801 E12.15474
G1 X144.437 Y62.340 E12.26267
G1 X143.980 Y63.889 E12.37052
G1 X143.619 Y65.219 E12.46262
G1 X143.171 Y67.016 E12.58634
G1 X142.819 Y68.595 E12.69439
G1 X142.502 Y70.179 E12.80232
G1 X142.220 Y71.770 E12.91025
G1 X141.973 Y73.367 E13.01819
G1 X141.762 Y74.967 E13.12602
G1 X141.611 Y76.337 E13.21813
G1 X141.447 Y78.182 E13.34186
G1 X141.343 Y79.796 E13.44991
G1 X141.275 Y81.410 E13.55784
G1 X141.243 Y83.024 E13.66566
G1 X141.244 Y84.401 E13.75768
G1 X141.278 Y86.015 E13.86550
G1 X141.348 Y87.629 E13.97343
G1 X141.454 Y89.241 E14.08136
G1 X141.595 Y90.851 E14.18929
G1 X141.773 Y92.458 E14.29734
G1 X142.020 Y94.294 E14.42106
G1 X142.234 Y95.656 E14.51317
G1 X142.518 Y97.245 E14.62101
G1 X142.837 Y98.829 E14.72894
G1 X143.191 Y100.405 E14.83688
G1 X143.580 Y101.973 E14.94481
G1 X144.004 Y103.534 E15.05286
G1 X144.533 Y105.308 E15.17658
G1 X144.955 Y106.621 E15.26868
G1 X145.481 Y108.147 E15.37653
G1 X146.041 Y109.663 E15.48446
G1 X146.635 Y111.165 E15.59239
G1 X147.262 Y112.654 E15.70032
G1 X147.923 Y114.130 E15.80839
G1 X148.721 Y115.802 E15.93209
G1 X149.340 Y117.033 E16.02418
G1 X150.097 Y118.460 E16.13204
G1 X150.886 Y119.872 E16.24012
G1 X151.828 Y121.465 E16.36381
G1 X152.555 Y122.637 E16.45589
G1 X153.435 Y123.991 E16.56377
G1 X154.346 Y125.327 E16.67185
G1 X155.426 Y126.831 E16.79553
G1 X156.254 Y127.933 E16.88761
G1 X157.250 Y129.204 E16.99549
G1 X158.277 Y130.455 E17.10358
G1 X159.486 Y131.856 E17.22725
G1 X160.408 Y132.881 E17.31932
G1 X161.515 Y134.060 E17.42737
G1 X162.815 Y135.378 E17.55104
G1 X163.802 Y136.339 E17.64311
G1 X164.984 Y137.440 E17.75101
G1 X166.809 Y139.043 E17.91327
G1 X166.810 Y139.410 E17.93781
G1 X167.346 Y140.629 F6000.000
G1 F900.000
G1 X165.681 Y139.228 E18.08319
G1 X164.504 Y138.182 E18.18838
G1 X163.336 Y137.099 E18.29481
G1 X162.192 Y135.990 E18.40122
G1 X161.059 Y134.844 E18.50890
G1 X159.977 Y133.700 E18.61409
G1 X158.907 Y132.520 E18.72052
G1 X157.863 Y131.316 E18.82693
G1 X156.834 Y130.076 E18.93461
G1 X155.854 Y128.843 E19.03980
G1 X154.900 Y127.588 E19.14515
G1 X153.953 Y126.284 E19.25281
G1 X153.033 Y124.956 E19.36078
G1 X152.167 Y123.648 E19.46557
G1 X151.333 Y122.326 E19.56995
G1 X150.496 Y120.936 E19.67837
G1 X149.695 Y119.537 E19.78603
G1 X148.943 Y118.154 E19.89121
G1 X148.212 Y116.739 E19.99763
G1 X147.504 Y115.291 E20.10531
G1 X146.843 Y113.862 E20.21050
G1 X146.205 Y112.402 E20.31692
G1 X145.600 Y110.928 E20.42334
G1 X145.020 Y109.425 E20.53102
G1 X144.484 Y107.944 E20.63621
G1 X143.976 Y106.434 E20.74263
G1 X143.499 Y104.914 E20.84906
G1 X143.056 Y103.384 E20.95549
G1 X142.646 Y101.844 E21.06191
G1 X142.270 Y100.296 E21.16834
G1 X141.927 Y98.741 E21.27476
G1 X141.614 Y97.159 E21.38244
G1 X141.342 Y95.609 E21.48762
G1 X141.101 Y94.034 E21.59405
G1 X140.894 Y92.455 E21.70047
G1 X140.719 Y90.852 E21.80815
G1 X140.582 Y89.284 E21.91333
G1 X140.478 Y87.694 E22.01976
G1 X140.408 Y86.105 E22.12603
G1 X140.372 Y84.475 E22.23492
G1 X140.372 Y82.914 E22.33920
G1 X140.405 Y81.352 E22.44360
G1 X140.473 Y79.732 E22.55191
G1 X140.576 Y78.142 E22.65832
G1 X140.711 Y76.574 E22.76351
G1 X140.883 Y74.971 E22.87119
G1 X141.089 Y73.392 E22.97761
G1 X141.328 Y71.817 E23.08403
G1 X141.602 Y70.247 E23.19046
G1 X141.905 Y68.702 E23.29565
G1 X142.250 Y67.128 E23.40333
G1 X142.625 Y65.579 E23.50974
G1 X143.028 Y64.057 E23.61493
G1 X143.474 Y62.508 E23.72261
G1 X143.949 Y60.988 E23.82902
G1 X144.456 Y59.478 E23.93545
G1 X144.989 Y57.996 E24.04064
G1 X145.567 Y56.492 E24.14832
G1 X146.171 Y55.018 E24.25473
G1 X146.807 Y53.557 E24.36116
G1 X147.467 Y52.127 E24.46635
G1 X148.173 Y50.678 E24.57403
G1 X148.902 Y49.262 E24.68044
G1 X149.653 Y47.878 E24.78563
G1 X150.451 Y46.478 E24.89331
G1 X151.271 Y45.112 E24.99973
G1 X152.115 Y43.772 E25.10554
G1 X153.001 Y42.430 E25.21292
G1 X153.903 Y41.126 E25.31885
G1 X154.819 Y39.860 E25.42327
G1 X155.801 Y38.564 E25.53187
G1 X156.790 Y37.316 E25.63829
G1 X157.795 Y36.104 E25.74347
G1 X158.849 Y34.885 E25.85115
G1 X159.918 Y33.703 E25.95757
G1 X161.011 Y32.545 E26.06400
G1 X162.117 Y31.423 E26.16918
G1 X163.273 Y30.300 E26.27686
G1 X164.439 Y29.215 E26.38328
G1 X165.629 Y28.156 E26.48970
G1 X167.279 Y26.765 E26.63386
G1 X167.279 Y28.599 E26.75638
G1 X166.478 Y29.283 E26.82678
G1 X165.281 Y30.352 E26.93395
G1 X164.110 Y31.447 E27.04107
G1 X163.131 Y32.401 E27.13238
G1 X161.841 Y33.712 E27.25524
G1 X160.744 Y34.884 E27.36250
G1 X159.674 Y36.078 E27.46960
G1 X158.784 Y37.115 E27.56092
G1 X157.615 Y38.536 E27.68379
G1 X156.626 Y39.800 E27.79104
G1 X155.666 Y41.085 E27.89818
G1 X154.735 Y42.390 E28.00528
G1 X153.966 Y43.520 E28.09660
G1 X152.962 Y45.061 E28.21948
G1 X152.119 Y46.427 E28.32672
G1 X151.307 Y47.809 E28.43382
G1 X150.641 Y49.003 E28.52515
G1 X149.777 Y50.627 E28.64803
G1 X149.059 Y52.063 E28.75527
G1 X148.373 Y53.512 E28.86235
G1 X147.815 Y54.760 E28.95369
G1 X147.099 Y56.454 E29.07658
G1 X146.511 Y57.948 E29.18381
G1 X145.957 Y59.453 E29.29095
G1 X145.436 Y60.969 E29.39808
G1 X144.949 Y62.497 E29.50522
G1 X144.496 Y64.035 E29.61230
G1 X144.137 Y65.354 E29.70364
G1 X143.693 Y67.139 E29.82654
G1 X143.343 Y68.706 E29.93376
G1 X143.028 Y70.278 E30.04090
G1 X142.748 Y71.857 E30.14804
G1 X142.503 Y73.442 E30.25517
G1 X142.294 Y75.031 E30.36224
G1 X142.144 Y76.390 E30.45359
G1 X141.981 Y78.223 E30.57650
G1 X141.878 Y79.825 E30.68372
G1 X141.811 Y81.427 E30.79085
G1 X141.779 Y83.029 E30.89791
G1 X141.779 Y84.395 E30.98919
G1 X141.813 Y85.998 E31.09625
G1 X141.883 Y87.600 E31.20339
G1 X141.988 Y89.200 E31.31052
G1 X142.128 Y90.798 E31.41766
G1 X142.304 Y92.393 E31.52488
G1 X142.550 Y94.216 E31.64778
G1 X142.762 Y95.567 E31.73913
G1 X143.044 Y97.145 E31.84620
G1 X143.361 Y98.717 E31.95334
G1 X143.712 Y100.282 E32.06047
G1 X144.098 Y101.838 E32.16761
G1 X144.519 Y103.387 E32.27484
G1 X145.045 Y105.150 E32.39773
G1 X145.463 Y106.452 E32.48907
G1 X145.986 Y107.967 E32.59615
G1 X146.542 Y109.471 E32.70329
G1 X147.131 Y110.963 E32.81043
G1 X147.754 Y112.441 E32.91756
G1 X148.410 Y113.906 E33.02480
G1 X149.202 Y115.566 E33.14769
G1 X149.816 Y116.787 E33.23902
G1 X150.567 Y118.203 E33.34611
G1 X151.350 Y119.605 E33.45335
G1 X152.287 Y121.188 E33.57623
G1 X153.007 Y122.350 E33.66756
G1 X153.881 Y123.694 E33.77465
G1 X154.785 Y125.020 E33.88190
