; generated by PrusaSlicer 2.2.0+win64 on 2020-06-14 at 11:00:34 UTC

; 

; external perimeters extrusion width = 0.40mm
; perimeters extrusion width = 0.40mm
; infill extrusion width = 0.40mm
; solid infill extrusion width = 0.40mm
; top infill extrusion width = 0.40mm

M107 ; disable fan
;START GCODE
M80; turn printer on
G4 S3; wait 3 seconds
G28
M140 S80
M109 S120
G1 E-10 F1800 
M104 S230
M116; wait for temperatures to be reached
; For automesh
     
; Replaced marker: M557 TBD  ; parameters will be set automatically
M557 X-32:32 Y-32:32 P3:3
; End marker
     
G32 ; Delta Calibration
G29  ;mesh
;_______________________
; Primen im Viertelkreis
G90                                         ; Send absolute coordinates...
M82                                        ; and extruder moves
G92 E-10
G1 X4.419 Y182.242 F9000
G1 Z0.150 F2400
G1 E0.0000 F540
G1 E5 F540
G92 E0
G1 X7.423 Y182.171 E0.0538 F1800
G1 X8.928 Y182.116 E0.0808
G1 X11.932 Y181.971 E0.1346
G1 X14.939 Y181.775 E0.1885
G1 X16.442 Y181.659 E0.2155
G1 X19.447 Y181.388 E0.2695
G1 X20.950 Y181.234 E0.2966
G1 X23.955 Y180.887 E0.3507
G1 X25.459 Y180.695 E0.3779
G1 X28.463 Y180.272 E0.4322
G1 X29.969 Y180.041 E0.4595
G1 X33.159 Y179.510 E0.5174
G1 X34.921 Y179.191 E0.5494
G1 X36.667 Y178.857 E0.5812
G1 X39.985 Y178.174 E0.6419
G1 X42.991 Y177.500 E0.6970
G1 X44.507 Y177.139 E0.7249
G1 X47.687 Y176.338 E0.7837
G1 X49.479 Y175.859 E0.8169
G1 X52.509 Y175.006 E0.8732
G1 X55.515 Y174.103 E0.9294
G1 X57.064 Y173.616 E0.9585
G1 X60.585 Y172.450 E1.0249
G1 X62.622 Y171.740 E1.0635
G1 X64.900 Y170.912 E1.1069
G1 X67.217 Y170.036 E1.1512
G1 X68.727 Y169.445 E1.1803
G1 X70.644 Y168.673 E1.2173
G1 X72.891 Y167.735 E1.2609
G1 X75.088 Y166.784 E1.3037
G1 X76.892 Y165.977 E1.3391
G1 X78.979 Y165.014 E1.3802
G1 X80.656 Y164.216 E1.4135
G1 X82.754 Y163.189 E1.4553
G1 X84.627 Y162.243 E1.4929
G1 X86.411 Y161.317 E1.5289
G1 X88.461 Y160.222 E1.5705
G1 X90.640 Y159.021 E1.6150
G1 X92.530 Y157.947 E1.6539
G1 X95.506 Y156.195 E1.7157
G1 X98.462 Y154.378 E1.7779
G1 X100.188 Y153.281 E1.8145
G1 X102.035 Y152.076 E1.8540
G1 X103.493 Y151.103 E1.8853
G1 X105.198 Y149.939 E1.9223
G1 X107.014 Y148.666 E1.9620
G1 X108.450 Y147.638 E1.9936
G1 X110.163 Y146.382 E2.0317
G1 X112.967 Y144.258 E2.0946
G1 X114.555 Y143.017 E2.1307
G1 X117.514 Y140.628 E2.1988
G1 X119.161 Y139.253 E2.2372
G1 X120.999 Y137.679 E2.2805
G1 X123.832 Y135.169 E2.3483
G1 X126.507 Y132.699 E2.4135
G1 X128.030 Y131.248 E2.4511
G1 X130.543 Y128.777 E2.5142
G1 X133.027 Y126.240 E2.5778
G1 X134.502 Y124.685 E2.6161
G1 X135.742 Y123.349 E2.6488
G1 X137.097 Y121.858 E2.6849
G1 X138.531 Y120.243 E2.7235
G1 X139.698 Y118.899 E2.7554
G1 X141.284 Y117.031 E2.7993
G1 X142.474 Y115.594 E2.8327
G1 X143.987 Y113.724 E2.8757
G1 X145.303 Y112.054 E2.9138
G1 X146.614 Y110.352 E2.9522
G1 X147.878 Y108.670 E2.9899
G1 X148.986 Y107.160 E3.0234
G1 X150.383 Y105.211 E3.0664
G1 X151.629 Y103.424 E3.1054
G1 X152.825 Y101.665 E3.1435
G1 X154.016 Y99.869 E3.1820
G1 X155.179 Y98.070 E3.2204
G1 X156.329 Y96.244 E3.2590
G1 X157.396 Y94.505 E3.2955
G1 X158.537 Y92.597 E3.3354
G1 X160.401 Y89.358 E3.4023
G1 X161.344 Y87.659 E3.4370
G1 X162.494 Y85.527 E3.4804
G1 X163.642 Y83.329 E3.5248
G1 X164.755 Y81.125 E3.5690
G1 X165.857 Y78.869 E3.6139
G1 X166.835 Y76.796 E3.6550
G1 X168.134 Y73.934 E3.7113
G1 X169.118 Y71.674 E3.7554
G1 X170.071 Y69.399 E3.7995
G1 X170.991 Y67.119 E3.8435
G1 X171.790 Y65.064 E3.8830
G1 X172.596 Y62.913 E3.9241
G1 X173.240 Y61.130 E3.9581
G1 X174.308 Y58.042 E4.0166
G1 X174.877 Y56.315 E4.0491
G1 X175.812 Y53.347 E4.1049
G1 X176.687 Y50.396 E4.1599
G1 X177.106 Y48.914 E4.1875
G1 X177.894 Y45.987 E4.2418
G1 X178.287 Y44.449 E4.2702
G1 X178.656 Y42.954 E4.2978
G1 X179.354 Y39.959 E4.3528
G1 X180.002 Y36.951 E4.4079
G1 X180.598 Y33.939 E4.4629
G1 X180.877 Y32.425 E4.4905
G1 X181.416 Y29.279 E4.5476
G1 X181.914 Y26.023 E4.6065
G1 X182.315 Y23.069 E4.6599
G1 X182.497 Y21.589 E4.6866
G1 X182.824 Y18.631 E4.7399
G1 X183.103 Y15.668 E4.7932
G1 X183.333 Y12.701 E4.8465
G1 X183.441 Y11.029 E4.8764
G1 X183.540 Y9.232 E4.9087
G1 X183.665 Y6.254 E4.9620
G1 X183.741 Y3.270 E5.0155
G1 X183.768 Y0.260 E5.0694
G1 X183.933 Y0.260 E5.0723
G1 X183.912 Y2.899 E5.1196
G1 X183.883 Y4.393 E5.1463
G1 X183.788 Y7.379 E5.1998
G1 X183.723 Y8.868 E5.2265
G1 X183.645 Y10.357 E5.2532
G1 X183.453 Y13.332 E5.3066
G1 X183.213 Y16.301 E5.3599
G1 X183.074 Y17.783 E5.3865
G1 X182.761 Y20.746 E5.4399
G1 X182.583 Y22.249 E5.4670
G1 X182.200 Y25.186 E5.5200
G1 X181.988 Y26.661 E5.5467
G1 X181.529 Y29.614 E5.6002
G1 X181.281 Y31.084 E5.6269
G1 X180.736 Y34.095 E5.6816
G1 X180.443 Y35.606 E5.7092
G1 X179.819 Y38.617 E5.7643
G1 X179.487 Y40.120 E5.7918
G1 X178.785 Y43.119 E5.8469
G1 X178.416 Y44.613 E5.8745
G1 X177.655 Y47.531 E5.9285
G1 X177.230 Y49.083 E5.9573
G1 X176.810 Y50.564 E5.9849
G1 X175.932 Y53.518 E6.0400
G1 X175.006 Y56.452 E6.0951
G1 X174.521 Y57.924 E6.1229
G1 X174.024 Y59.389 E6.1506
G1 X173.005 Y62.273 E6.2053
G1 X172.405 Y63.903 E6.2364
G1 X171.524 Y66.212 E6.2806
G1 X170.677 Y68.350 E6.3218
G1 X169.949 Y70.127 E6.3562
G1 X169.026 Y72.305 E6.3985
G1 X168.038 Y74.554 E6.4425
G1 X166.543 Y77.809 E6.5066
G1 X165.502 Y79.981 E6.5498
G1 X164.517 Y81.972 E6.5895
G1 X163.517 Y83.932 E6.6289
G1 X162.435 Y85.988 E6.6705
G1 X161.307 Y88.068 E6.7129
G1 X160.114 Y90.201 E6.7566
G1 X158.181 Y93.519 E6.8254
G1 X156.953 Y95.547 E6.8678
G1 X155.842 Y97.332 E6.9055
G1 X154.688 Y99.139 E6.9438
G1 X153.694 Y100.659 E6.9764
G1 X151.689 Y103.628 E7.0405
G1 X150.338 Y105.560 E7.0827
G1 X148.931 Y107.517 E7.1258
G1 X147.685 Y109.206 E7.1634
G1 X146.417 Y110.882 E7.2010
G1 X145.113 Y112.566 E7.2392
G1 X142.922 Y115.307 E7.3020
G1 X140.455 Y118.269 E7.3710
G1 X139.113 Y119.828 E7.4078
G1 X137.693 Y121.440 E7.4463
G1 X136.238 Y123.052 E7.4852
G1 X134.987 Y124.408 E7.5182
G1 X133.387 Y126.102 E7.5599
G1 X131.403 Y128.145 E7.6109
G1 X130.404 Y129.150 E7.6363
G1 X128.391 Y131.129 E7.6868
G1 X126.283 Y133.136 E7.7389
G1 X124.461 Y134.821 E7.7833
G1 X122.934 Y136.197 E7.8201
G1 X121.253 Y137.677 E7.8602
G1 X118.804 Y139.770 E7.9179
G1 X116.925 Y141.324 E7.9616
G1 X115.247 Y142.678 E8.0002
G1 X112.454 Y144.861 E8.0636
G1 X110.710 Y146.180 E8.1028
G1 X108.962 Y147.470 E8.1417
G1 X107.239 Y148.710 E8.1797
G1 X105.693 Y149.796 E8.2135
G1 X103.857 Y151.056 E8.2534
G1 X100.937 Y152.993 E8.3161
G1 X99.213 Y154.100 E8.3528
G1 X97.351 Y155.264 E8.3921
G1 X95.870 Y156.168 E8.4231
G1 X92.767 Y158.001 E8.4877
G1 X90.720 Y159.165 E8.5298
G1 X88.657 Y160.304 E8.5720
G1 X87.202 Y161.086 E8.6016
G1 X85.107 Y162.182 E8.6439
G1 X83.228 Y163.136 E8.6816
G1 X81.425 Y164.027 E8.7176
G1 X77.950 Y165.674 E8.7865
G1 X75.746 Y166.673 E8.8298
G1 X73.928 Y167.470 E8.8653
G1 X71.822 Y168.364 E8.9063
G1 X70.277 Y169.001 E8.9362
G1 X68.699 Y169.634 E8.9667
G1 X66.335 Y170.550 E9.0121
G1 X63.449 Y171.619 E9.0671
G1 X61.199 Y172.414 E9.1099
G1 X57.449 Y173.666 E9.1806
G1 X55.099 Y174.404 E9.2247
G1 X53.605 Y174.855 E9.2527
G1 X51.792 Y175.385 E9.2865
G1 X48.792 Y176.216 E9.3422
G1 X47.292 Y176.611 E9.3700
G1 X44.384 Y177.339 E9.4237
G1 X42.604 Y177.759 E9.4564
G1 X39.103 Y178.531 E9.5206
G1 X35.790 Y179.195 E9.5811
G1 X34.291 Y179.474 E9.6084
G1 X31.292 Y179.995 E9.6629
G1 X29.792 Y180.236 E9.6901
G1 X26.790 Y180.680 E9.7444
G1 X25.291 Y180.883 E9.7715
G1 X22.289 Y181.252 E9.8256
G1 X20.790 Y181.417 E9.8526
G1 X17.789 Y181.709 E9.9066
G1 X16.290 Y181.836 E9.9335
G1 X13.288 Y182.054 E9.9874
G1 X11.789 Y182.144 E10.0143
G1 X8.789 Y182.287 E10.0681
G1 X5.788 Y182.381 E10.1218
G1 X4.102 Y182.412 E10.1520
G1 X3.289 Y182.421 E10.1666
G1 X1.765 Y182.429 E10.1939
G1 X1.765 Y182.263 E10.1968
G1 X4.419 Y182.242 E10.2443
G92 E0 ; Primen im Viertelkreis zu Ende
;----------------------------------------------
G90                                         ; Send absolute coordinates...
M83                                         ; ...but relative extruder moves
G21 ; set units to millimeters
G90 ; use absolute coordinates
M82 ; use absolute distances for extrusion
G92 E0 ; reset extrusion distance
; Filament gcode
; Automesh: begin layer 0
G1 Z0.200 F12000.000 ; move to next layer (0)
G1 E-2.00000 F2400.00000 ; retract
G92 E0 ; reset extrusion distance
G1 X-0.000 Y21.267 F12000.000 ; move to first skirt point
G1 E2.00000 F2400.00000 ; unretract
G1 F1800.000
G1 X-13.018 Y21.266 E2.38651 ; skirt
G1 X-14.225 Y21.110 E2.42265 ; skirt
G1 X-15.617 Y20.709 E2.46565 ; skirt
G1 X-16.707 Y20.208 E2.50127 ; skirt
G1 X-17.683 Y19.589 E2.53560 ; skirt
G1 X-18.497 Y18.916 E2.56695 ; skirt
G1 X-19.192 Y18.186 E2.59687 ; skirt
G1 X-20.204 Y16.718 E2.64982 ; skirt
G1 X-20.658 Y15.754 E2.68145 ; skirt
G1 X-20.979 Y14.789 E2.71165 ; skirt
G1 X-21.269 Y13.005 E2.76531 ; skirt
G1 X-21.269 Y-13.023 E3.53811 ; skirt
G1 X-21.112 Y-14.230 E3.57425 ; skirt
G1 X-20.711 Y-15.621 E3.61725 ; skirt
G1 X-20.210 Y-16.712 E3.65286 ; skirt
G1 X-19.591 Y-17.688 E3.68720 ; skirt
G1 X-18.440 Y-18.974 E3.73844 ; skirt
G1 X-17.668 Y-19.607 E3.76808 ; skirt
G1 X-16.824 Y-20.149 E3.79786 ; skirt
G1 X-15.228 Y-20.854 E3.84967 ; skirt
G1 X-13.552 Y-21.225 E3.90063 ; skirt
G1 X-12.513 Y-21.289 E3.93155 ; skirt
G1 X12.506 Y-21.289 E4.67439 ; skirt
G1 X14.119 Y-21.138 E4.72250 ; skirt
G1 X15.619 Y-20.716 E4.76877 ; skirt
G1 X16.810 Y-20.159 E4.80780 ; skirt
G1 X18.103 Y-19.271 E4.85436 ; skirt
G1 X19.254 Y-18.124 E4.90262 ; skirt
G1 X20.142 Y-16.837 E4.94903 ; skirt
G1 X20.703 Y-15.649 E4.98806 ; skirt
G1 X21.136 Y-14.122 E5.03519 ; skirt
G1 X21.287 Y-12.527 E5.08274 ; skirt
G1 X21.272 Y12.992 E5.84044 ; skirt
G1 X21.130 Y14.148 E5.87501 ; skirt
G1 X20.822 Y15.312 E5.91077 ; skirt
G1 X20.245 Y16.645 E5.95391 ; skirt
G1 X19.594 Y17.681 E5.99024 ; skirt
G1 X18.920 Y18.494 E6.02158 ; skirt
G1 X18.191 Y19.190 E6.05151 ; skirt
G1 X16.722 Y20.201 E6.10445 ; skirt
G1 X15.759 Y20.656 E6.13608 ; skirt
G1 X14.793 Y20.977 E6.16629 ; skirt
G1 X13.010 Y21.267 E6.21995 ; skirt
G1 X0.060 Y21.267 E6.60445 ; skirt
G1 X0.060 Y20.910 F12000.000 ; move to first skirt point
G1 F1800.000
G1 X-12.994 Y20.910 E6.99202 ; skirt
G1 X-14.151 Y20.761 E7.02666 ; skirt
G1 X-15.496 Y20.373 E7.06823 ; skirt
G1 X-16.541 Y19.892 E7.10237 ; skirt
G1 X-17.484 Y19.292 E7.13557 ; skirt
G1 X-18.257 Y18.651 E7.16538 ; skirt
G1 X-18.927 Y17.946 E7.19425 ; skirt
G1 X-19.891 Y16.545 E7.24474 ; skirt
G1 X-20.328 Y15.616 E7.27523 ; skirt
G1 X-20.636 Y14.689 E7.30423 ; skirt
G1 X-20.913 Y12.984 E7.35554 ; skirt
G1 X-20.912 Y-12.998 E8.12698 ; skirt
G1 X-20.763 Y-14.155 E8.16162 ; skirt
G1 X-20.375 Y-15.501 E8.20319 ; skirt
G1 X-19.894 Y-16.546 E8.23733 ; skirt
G1 X-19.294 Y-17.489 E8.27053 ; skirt
G1 X-18.202 Y-18.708 E8.31914 ; skirt
G1 X-17.457 Y-19.319 E8.34773 ; skirt
G1 X-16.639 Y-19.844 E8.37659 ; skirt
G1 X-15.116 Y-20.515 E8.42601 ; skirt
G1 X-13.500 Y-20.872 E8.47515 ; skirt
G1 X-12.511 Y-20.932 E8.50456 ; skirt
G1 X12.506 Y-20.932 E9.24735 ; skirt
G1 X14.055 Y-20.787 E9.29353 ; skirt
G1 X15.499 Y-20.380 E9.33808 ; skirt
G1 X16.631 Y-19.850 E9.37520 ; skirt
G1 X17.876 Y-18.996 E9.42002 ; skirt
G1 X18.980 Y-17.894 E9.46633 ; skirt
G1 X19.837 Y-16.652 E9.51115 ; skirt
G1 X20.370 Y-15.521 E9.54827 ; skirt
G1 X20.788 Y-14.042 E9.59390 ; skirt
G1 X20.930 Y-12.521 E9.63926 ; skirt
G1 X20.916 Y12.973 E10.39621 ; skirt
G1 X20.766 Y14.144 E10.43125 ; skirt
G1 X20.379 Y15.489 E10.47282 ; skirt
G1 X19.897 Y16.539 E10.50710 ; skirt
G1 X19.297 Y17.482 E10.54030 ; skirt
G1 X18.656 Y18.255 E10.57012 ; skirt
G1 X17.951 Y18.925 E10.59898 ; skirt
G1 X16.550 Y19.889 E10.64947 ; skirt
G1 X15.621 Y20.326 E10.67996 ; skirt
G1 X14.694 Y20.634 E10.70896 ; skirt
G1 X12.988 Y20.910 E10.76027 ; skirt
G1 X0.120 Y20.910 E11.14236 ; skirt
G1 X0.120 Y20.554 F12000.000 ; move to first skirt point
G1 F1800.000
G1 X-12.970 Y20.554 E11.53100 ; skirt
G1 X-14.077 Y20.411 E11.56414 ; skirt
G1 X-15.375 Y20.037 E11.60426 ; skirt
G1 X-16.374 Y19.576 E11.63693 ; skirt
G1 X-17.280 Y18.998 E11.66883 ; skirt
G1 X-18.014 Y18.389 E11.69714 ; skirt
G1 X-18.659 Y17.711 E11.72494 ; skirt
G1 X-19.578 Y16.373 E11.77313 ; skirt
G1 X-19.997 Y15.483 E11.80234 ; skirt
G1 X-20.293 Y14.590 E11.83027 ; skirt
G1 X-20.556 Y12.958 E11.87935 ; skirt
G1 X-20.556 Y-12.975 E12.64933 ; skirt
G1 X-20.413 Y-14.081 E12.68246 ; skirt
G1 X-20.039 Y-15.380 E12.72259 ; skirt
G1 X-19.580 Y-16.375 E12.75513 ; skirt
G1 X-19.001 Y-17.285 E12.78716 ; skirt
G1 X-17.960 Y-18.445 E12.83343 ; skirt
G1 X-17.246 Y-19.031 E12.86084 ; skirt
G1 X-16.458 Y-19.536 E12.88864 ; skirt
G1 X-15.000 Y-20.177 E12.93593 ; skirt
G1 X-13.448 Y-20.518 E12.98310 ; skirt
G1 X-12.510 Y-20.575 E13.01103 ; skirt
G1 X12.506 Y-20.575 E13.75376 ; skirt
G1 X13.990 Y-20.436 E13.79803 ; skirt
G1 X15.378 Y-20.044 E13.84084 ; skirt
G1 X16.452 Y-19.541 E13.87608 ; skirt
G1 X17.652 Y-18.717 E13.91928 ; skirt
G1 X18.706 Y-17.665 E13.96350 ; skirt
G1 X19.529 Y-16.470 E14.00658 ; skirt
G1 X20.035 Y-15.397 E14.04181 ; skirt
G1 X20.439 Y-13.963 E14.08603 ; skirt
G1 X20.572 Y-12.519 E14.12911 ; skirt
G1 X20.559 Y12.950 E14.88532 ; skirt
G1 X20.417 Y14.070 E14.91883 ; skirt
G1 X20.042 Y15.373 E14.95909 ; skirt
G1 X19.581 Y16.372 E14.99176 ; skirt
G1 X19.003 Y17.278 E15.02366 ; skirt
G1 X18.394 Y18.012 E15.05197 ; skirt
G1 X17.715 Y18.656 E15.07977 ; skirt
G1 X16.378 Y19.576 E15.12796 ; skirt
G1 X15.488 Y19.995 E15.15717 ; skirt
G1 X14.595 Y20.291 E15.18509 ; skirt
G1 X12.963 Y20.554 E15.23418 ; skirt
G1 X0.180 Y20.554 E15.61373 ; skirt
G1 X0.180 Y20.198 F12000.000 ; move to first skirt point
G1 F1800.000
G1 X-12.947 Y20.197 E16.00347 ; skirt
G1 X-14.003 Y20.062 E16.03508 ; skirt
G1 X-15.258 Y19.699 E16.07388 ; skirt
G1 X-16.204 Y19.262 E16.10482 ; skirt
G1 X-17.076 Y18.705 E16.13552 ; skirt
G1 X-17.771 Y18.128 E16.16237 ; skirt
G1 X-18.391 Y17.475 E16.18909 ; skirt
G1 X-19.265 Y16.201 E16.23498 ; skirt
G1 X-19.666 Y15.349 E16.26291 ; skirt
G1 X-19.950 Y14.491 E16.28976 ; skirt
G1 X-20.200 Y12.937 E16.33649 ; skirt
G1 X-20.200 Y-12.952 E17.10516 ; skirt
G1 X-20.064 Y-14.008 E17.13677 ; skirt
G1 X-19.701 Y-15.263 E17.17556 ; skirt
G1 X-19.264 Y-16.209 E17.20651 ; skirt
G1 X-18.708 Y-17.080 E17.23721 ; skirt
G1 X-18.130 Y-17.776 E17.26405 ; skirt
G1 X-17.486 Y-18.387 E17.29041 ; skirt
G1 X-16.274 Y-19.230 E17.33426 ; skirt
G1 X-14.888 Y-19.838 E17.37919 ; skirt
G1 X-13.402 Y-20.164 E17.42436 ; skirt
G1 X-12.508 Y-20.218 E17.45096 ; skirt
G1 X12.505 Y-20.218 E18.19363 ; skirt
G1 X13.926 Y-20.085 E18.23599 ; skirt
G1 X15.257 Y-19.708 E18.27707 ; skirt
G1 X16.274 Y-19.231 E18.31042 ; skirt
G1 X17.422 Y-18.444 E18.35174 ; skirt
G1 X18.433 Y-17.435 E18.39414 ; skirt
G1 X19.222 Y-16.289 E18.43546 ; skirt
G1 X19.702 Y-15.269 E18.46893 ; skirt
G1 X20.089 Y-13.890 E18.51146 ; skirt
G1 X20.215 Y-12.516 E18.55242 ; skirt
G1 X20.203 Y12.932 E19.30803 ; skirt
G1 X20.067 Y13.997 E19.33988 ; skirt
G1 X19.706 Y15.252 E19.37867 ; skirt
G1 X19.267 Y16.202 E19.40974 ; skirt
G1 X18.710 Y17.073 E19.44044 ; skirt
G1 X18.130 Y17.772 E19.46741 ; skirt
G1 X17.480 Y18.388 E19.49401 ; skirt
G1 X16.205 Y19.263 E19.53990 ; skirt
G1 X15.354 Y19.664 E19.56783 ; skirt
G1 X14.496 Y19.948 E19.59468 ; skirt
G1 X12.942 Y20.198 E19.64141 ; skirt
G1 X0.240 Y20.198 E20.01856 ; skirt
G1 X0.240 Y19.841 F12000.000 ; move to first skirt point
G1 F1800.000
G1 X-12.925 Y19.841 E20.40942 ; skirt
G1 X-13.926 Y19.713 E20.43939 ; skirt
G1 X-15.137 Y19.363 E20.47682 ; skirt
G1 X-16.034 Y18.948 E20.50617 ; skirt
G1 X-16.870 Y18.413 E20.53563 ; skirt
G1 X-17.531 Y17.863 E20.56116 ; skirt
G1 X-18.122 Y17.239 E20.58670 ; skirt
G1 X-18.951 Y16.031 E20.63018 ; skirt
G1 X-19.335 Y15.216 E20.65695 ; skirt
G1 X-19.607 Y14.392 E20.68270 ; skirt
G1 X-19.843 Y12.916 E20.72708 ; skirt
G1 X-19.843 Y-12.930 E21.49447 ; skirt
G1 X-19.715 Y-13.931 E21.52444 ; skirt
G1 X-19.366 Y-15.142 E21.56187 ; skirt
G1 X-18.950 Y-16.039 E21.59122 ; skirt
G1 X-18.418 Y-16.872 E21.62057 ; skirt
G1 X-17.868 Y-17.533 E21.64610 ; skirt
G1 X-17.250 Y-18.120 E21.67141 ; skirt
G1 X-16.093 Y-18.922 E21.71321 ; skirt
G1 X-14.772 Y-19.500 E21.75602 ; skirt
G1 X-13.356 Y-19.810 E21.79905 ; skirt
